mamurtaza88/drake/examples/kuka_iiwa_arm/Experiment_1_IROS_2022/joint_position.csv
q1, q2, q3, q4, q5, q6, q7
-0.000100787, 0.858158, -6.09997e-05, -1.04714, -5.0909e-05, 0.506101, 8.64062e-05
-0.000100668, 0.858158, -6.10596e-05, -1.04714, -5.06214e-05, 0.506102, 8.6586e-05
-0.000100907, 0.858158, -6.11196e-05, -1.04714, -5.11008e-05, 0.506101, 8.64062e-05
-0.000100907, 0.858158, -6.11196e-05, -1.04714, -5.0909e-05, 0.506101, 8.64062e-05
-0.000100608, 0.858158, -6.09997e-05, -1.04714, -5.08132e-05, 0.506102, 8.6586e-05
-0.000100967, 0.858158, -6.10596e-05, -1.04714, -5.0909e-05, 0.506101, 8.61666e-05
-0.000103184, 0.858134, -6.54339e-05, -1.04718, -5.02379e-05, 0.506143, 8.61666e-05
-0.000113251, 0.857243, -0.000104323, -1.04774, -4.54442e-05, 0.506463, 8.62865e-05
-5.15319e-06, 0.855729, -5.00941e-05, -1.04864, -3.63362e-05, 0.506761, 8.63463e-05
5.53072e-05, 0.85413, -4.56e-05, -1.05057, -2.579e-05, 0.507517, 8.61666e-05
0.000183419, 0.852762, -2.28899e-05, -1.0528, -2.33932e-05, 0.50833, 8.63463e-05
0.000410699, 0.851086, 1.37816e-06, -1.05532, -1.6011e-05, 0.509462, 8.61067e-05
0.000770106, 0.849185, 4.61992e-05, -1.05794, -1.39975e-05, 0.510644, 8.61067e-05
0.00143253, 0.84682, 0.00016742, -1.06048, -7.09459e-06, 0.512045, 8.63463e-05
0.00260555, 0.844355, 0.000662728, -1.06359, 4.31428e-06, 0.513679, 8.57472e-05
0.00368215, 0.841759, 0.000903551, -1.06686, -2.20505e-06, 0.515283, 8.53876e-05
0.00463736, 0.839089, 0.000955742, -1.07016, 1.87913e-05, 0.516831, 8.55075e-05
0.00551484, 0.836399, 0.00108463, -1.07423, 4.08423e-05, 0.518692, 8.49682e-05
0.00678733, 0.833518, 0.00163327, -1.07886, 4.18968e-05, 0.520831, 8.50281e-05
0.00827888, 0.830235, 0.00227658, -1.08346, 4.07463e-05, 0.522842, 8.5088e-05
0.00965479, 0.826688, 0.00261694, -1.08809, 5.12924e-05, 0.524761, 8.50281e-05
0.0108944, 0.823046, 0.00278891, -1.09308, 6.18386e-05, 0.526851, 8.55075e-05
0.0123195, 0.819263, 0.00321824, -1.09852, 7.20013e-05, 0.529205, 8.50281e-05
0.013996, 0.81523, 0.00389002, -1.10403, 6.61529e-05, 0.531327, 8.50281e-05
0.0156174, 0.810934, 0.00436226, -1.10969, 6.70158e-05, 0.532363, 8.50281e-05
0.0169408, 0.806552, 0.00450685, -1.11554, 9.03131e-05, 0.532352, 8.44888e-05
0.0180741, 0.802129, 0.00469548, -1.12138, 0.000109009, 0.532899, 8.47284e-05
0.019297, 0.797788, 0.00519966, -1.12682, 0.000114761, 0.534822, 8.49082e-05
0.0206714, 0.793562, 0.00583794, -1.13185, 0.000110638, 0.537775, 8.46685e-05
0.0221187, 0.789549, 0.0063786, -1.13661, 0.000111597, 0.540199, 8.48483e-05
0.0235618, 0.785596, 0.00690004, -1.14109, 0.000125882, 0.541221, 8.49082e-05
0.0250129, 0.781732, 0.00758446, -1.14526, 0.000131731, 0.541692, 8.46685e-05
0.0264818, 0.777955, 0.00833862, -1.14922, 0.000131731, 0.542797, 8.48483e-05
0.0279446, 0.774342, 0.00892375, -1.15314, 0.000127704, 0.544936, 8.47884e-05
0.029445, 0.770796, 0.00935854, -1.15703, 0.000129621, 0.547594, 8.48483e-05
0.0310096, 0.76719, 0.00989891, -1.16091, 0.000137579, 0.549624, 8.49082e-05
0.0326199, 0.763501, 0.0106449, -1.165, 0.000149084, 0.550822, 8.49082e-05
0.0342503, 0.75975, 0.0114249, -1.16921, 0.000152248, 0.551778, 8.46685e-05
0.0359246, 0.75598, 0.0120923, -1.17348, 0.000150138, 0.553227, 8.49082e-05
0.03769, 0.752286, 0.0127616, -1.17766, 0.000151481, 0.555244, 8.49082e-05
0.0394946, 0.748604, 0.0135286, -1.18182, 0.000155411, 0.557517, 8.46685e-05
0.0412378, 0.744995, 0.0143543, -1.18608, 0.000154932, 0.559355, 8.47284e-05
0.0428977, 0.741358, 0.0150959, -1.19044, 0.000153494, 0.560714, 8.47884e-05
0.0445888, 0.737763, 0.0157282, -1.19481, 0.00015311, 0.561939, 8.47284e-05
0.0464494, 0.734192, 0.0164543, -1.19902, 0.000154261, 0.563424, 8.49082e-05
0.0484422, 0.730684, 0.0173566, -1.20318, 0.000156945, 0.565279, 8.46087e-05
0.0504451, 0.727303, 0.0183169, -1.20734, 0.000160972, 0.56723, 8.46087e-05
0.0523972, 0.723952, 0.0192295, -1.21164, 0.000160876, 0.568982, 8.48483e-05
0.0543782, 0.720694, 0.0200959, -1.21597, 0.000160589, 0.570371, 8.47884e-05
0.056468, 0.717383, 0.0210323, -1.22026, 0.000161643, 0.571701, 8.46685e-05
0.0586362, 0.714138, 0.0220607, -1.2245, 0.000161547, 0.573175, 8.49082e-05
0.0608043, 0.710874, 0.0231034, -1.22875, 0.000161739, 0.574916, 8.49082e-05
0.0629595, 0.707687, 0.0241306, -1.23301, 0.000160397, 0.576721, 8.48483e-05
0.0651482, 0.704503, 0.0251683, -1.23723, 0.000160301, 0.578319, 8.47284e-05
0.0673951, 0.701347, 0.0262686, -1.24138, 0.000160684, 0.579673, 8.49082e-05
0.0696606, 0.698221, 0.0273952, -1.24555, 0.000162314, 0.581001, 8.47884e-05
0.0718803, 0.695136, 0.0284996, -1.24972, 0.000161356, 0.582482, 8.50281e-05
0.0740653, 0.692112, 0.0295775, -1.25388, 0.000162027, 0.58414, 8.47284e-05
0.0762614, 0.689141, 0.0306848, -1.25795, 0.000161452, 0.58574, 8.47884e-05
0.0784982, 0.686221, 0.0318167, -1.26203, 0.000162314, 0.587171, 8.46685e-05
0.0807595, 0.683387, 0.0329669, -1.2661, 0.000163944, 0.588444, 8.47884e-05
0.0830211, 0.680583, 0.0341139, -1.27022, 0.000168163, 0.589788, 8.47884e-05
0.0852808, 0.677878, 0.035297, -1.27428, 0.000167779, 0.591194, 8.50281e-05
0.0875485, 0.675179, 0.0365051, -1.27825, 0.000167396, 0.592691, 8.47884e-05
0.0898373, 0.672553, 0.0377184, -1.28218, 0.000165958, 0.594112, 8.49082e-05
0.0921492, 0.669975, 0.0389342, -1.28611, 0.000165191, 0.595409, 8.49082e-05
0.094485, 0.667461, 0.040163, -1.29009, 0.000167492, 0.596683, 8.46685e-05
0.0968251, 0.665022, 0.041423, -1.29404, 0.000167492, 0.59795, 8.48483e-05
0.0991578, 0.662608, 0.0426967, -1.29792, 0.000167587, 0.599266, 8.49082e-05
0.101495, 0.660265, 0.0439758, -1.30176, 0.000167875, 0.600588, 8.47884e-05
0.103839, 0.657985, 0.0452323, -1.30562, 0.000169313, 0.601869, 8.47884e-05
0.106184, 0.655756, 0.0464857, -1.3095, 0.000169792, 0.603113, 8.50281e-05
0.108535, 0.653586, 0.0477635, -1.31332, 0.000169792, 0.604281, 8.47884e-05
0.110883, 0.651421, 0.0490647, -1.31704, 0.000169697, 0.605436, 8.47284e-05
0.113232, 0.649311, 0.0503773, -1.32072, 0.000170368, 0.606609, 8.49082e-05
0.115584, 0.647261, 0.0516819, -1.32439, 0.000167875, 0.607793, 8.48483e-05
0.117937, 0.645271, 0.0529754, -1.32807, 0.000168258, 0.608977, 8.47284e-05
0.120284, 0.643361, 0.0542854, -1.33175, 0.000169313, 0.610096, 8.47284e-05
0.122641, 0.641477, 0.0556165, -1.33535, 0.000169217, 0.611154, 8.49682e-05
0.125, 0.639649, 0.0569595, -1.33889, 0.000169121, 0.612193, 8.47284e-05
0.127367, 0.637879, 0.0582966, -1.34247, 0.000168163, 0.61328, 8.49082e-05
0.129744, 0.636169, 0.0596311, -1.34599, 0.000167587, 0.614338, 8.50281e-05
0.132129, 0.634504, 0.0609725, -1.3495, 0.000169026, 0.6154, 8.48483e-05
0.13452, 0.632909, 0.0623363, -1.35295, 0.000170655, 0.616372, 8.47884e-05
0.136899, 0.631336, 0.0636983, -1.35632, 0.000169409, 0.617322, 8.50281e-05
0.139263, 0.629845, 0.0650329, -1.35966, 0.000167492, 0.61825, 8.48483e-05
0.141634, 0.628393, 0.0663572, -1.363, 0.000167587, 0.619232, 8.48483e-05
0.144021, 0.626996, 0.0677042, -1.36629, 0.000168163, 0.620188, 8.49682e-05
0.146414, 0.625666, 0.0690725, -1.3696, 0.00016893, 0.62113, 8.47884e-05
0.148805, 0.624379, 0.0704488, -1.37284, 0.000169697, 0.622012, 8.47884e-05
0.151186, 0.623136, 0.0718134, -1.376, 0.000169888, 0.622858, 8.50281e-05
0.153569, 0.621956, 0.0731684, -1.37916, 0.000169505, 0.623707, 8.49082e-05
0.155954, 0.620842, 0.0745369, -1.38232, 0.000168738, 0.624575, 8.47284e-05
0.158331, 0.619769, 0.0759007, -1.38542, 0.000169505, 0.625418, 8.50281e-05
0.160705, 0.618764, 0.0772645, -1.3885, 0.000170176, 0.626234, 8.49082e-05
0.16308, 0.617797, 0.0786313, -1.39151, 0.000170655, 0.626995, 8.47284e-05
0.165453, 0.616874, 0.07999, -1.39442, 0.00017056, 0.627731, 8.49082e-05
0.16783, 0.616009, 0.0813469, -1.3973, 0.00017008, 0.628479, 8.50281e-05
0.170199, 0.615212, 0.0827092, -1.40018, 0.000168738, 0.629236, 8.47884e-05
0.172563, 0.614474, 0.0840696, -1.40298, 0.000168738, 0.629952, 8.47884e-05
0.174906, 0.613783, 0.0853954, -1.40576, 0.00017008, 0.630636, 8.50281e-05
0.177228, 0.613176, 0.0866987, -1.40852, 0.000170176, 0.631289, 8.49082e-05
0.17956, 0.612619, 0.0880178, -1.41121, 0.000169505, 0.631951, 8.47284e-05
0.181905, 0.612114, 0.0893694, -1.41381, 0.000167396, 0.632589, 8.49082e-05
0.18424, 0.611673, 0.0907099, -1.41641, 0.000167779, 0.633206, 8.50281e-05
0.18656, 0.611314, 0.0920272, -1.419, 0.000169313, 0.633815, 8.47284e-05
0.188872, 0.611023, 0.0933269, -1.4215, 0.000169313, 0.634393, 8.47884e-05
0.191191, 0.610782, 0.0946446, -1.42392, 0.000169888, 0.634945, 8.50281e-05
0.193507, 0.610608, 0.0959711, -1.42633, 0.000169697, 0.635494, 8.48483e-05
0.195803, 0.610492, 0.097265, -1.42868, 0.000169313, 0.63603, 8.48483e-05
0.198081, 0.610444, 0.0985368, -1.43092, 0.00016845, 0.636528, 8.49082e-05
0.200363, 0.610468, 0.0998121, -1.43309, 0.00016845, 0.636977, 8.49082e-05
0.202645, 0.610553, 0.101096, -1.43524, 0.000167875, 0.63744, 8.47284e-05
0.204918, 0.610702, 0.102375, -1.43736, 0.0001673, 0.637916, 8.49082e-05
0.207175, 0.610908, 0.103627, -1.43941, 0.000167587, 0.638368, 8.49082e-05
0.209413, 0.611214, 0.104848, -1.44137, 0.000167396, 0.638755, 8.49682e-05
0.211651, 0.611604, 0.106071, -1.4433, 0.000167683, 0.639129, 8.47884e-05
0.213884, 0.61207, 0.107302, -1.44518, 0.000167683, 0.639516, 8.50281e-05
0.216102, 0.612566, 0.108511, -1.44699, 0.000168163, 0.63992, 8.49082e-05
0.218309, 0.613122, 0.109714, -1.44868, 0.000167492, 0.640263, 8.46685e-05
0.220518, 0.613741, 0.110912, -1.45033, 0.000168163, 0.640567, 8.49082e-05
0.222721, 0.61442, 0.112096, -1.45192, 0.000169026, 0.640858, 8.49082e-05
0.224915, 0.615146, 0.113275, -1.45345, 0.000167971, 0.641172, 8.48483e-05
0.227104, 0.615928, 0.11444, -1.45493, 0.0001673, 0.641476, 8.49082e-05
0.229285, 0.616749, 0.115602, -1.45633, 0.000167012, 0.641752, 8.49682e-05
0.231465, 0.617609, 0.116754, -1.45768, 0.000166724, 0.641991, 8.48483e-05
0.233633, 0.618529, 0.117898, -1.45896, 0.0001673, 0.642198, 8.50281e-05
0.235784, 0.619484, 0.119004, -1.46014, 0.000167875, 0.642405, 8.48483e-05
0.237927, 0.620489, 0.120111, -1.46124, 0.000167396, 0.642599, 8.49082e-05
0.240072, 0.621529, 0.121228, -1.4623, 0.000167396, 0.642797, 8.49082e-05
0.242212, 0.622602, 0.122334, -1.46329, 0.000167108, 0.642974, 8.47284e-05
0.244334, 0.623702, 0.123399, -1.46419, 0.000166437, 0.643131, 8.50281e-05
0.246448, 0.624844, 0.124442, -1.46501, 0.000166724, 0.643261, 8.49082e-05
0.248552, 0.626016, 0.125486, -1.46577, 0.000166533, 0.643392, 8.49682e-05
0.250661, 0.627211, 0.126541, -1.46643, 0.000166629, 0.643512, 8.50281e-05
0.252757, 0.628422, 0.127576, -1.46703, 0.000166724, 0.643626, 8.49082e-05
0.254837, 0.62967, 0.128582, -1.46757, 0.0001673, 0.643712, 8.48483e-05
0.256912, 0.63093, 0.129579, -1.46803, 0.0001673, 0.643791, 8.50281e-05
0.258999, 0.632228, 0.130588, -1.4684, 0.0001673, 0.643859, 8.48483e-05
0.261073, 0.633543, 0.131575, -1.4687, 0.000166916, 0.643928, 8.49682e-05
0.263134, 0.634879, 0.132544, -1.46892, 0.000166437, 0.643971, 8.50281e-05
0.265195, 0.636235, 0.133499, -1.46906, 0.000167108, 0.644005, 8.48483e-05
0.267254, 0.637609, 0.134447, -1.46911, 0.000167204, 0.64403, 8.49082e-05
0.269316, 0.638996, 0.135396, -1.46909, 0.000167012, 0.644056, 8.49082e-05
0.27137, 0.640403, 0.136335, -1.46901, 0.000166437, 0.64406, 8.47884e-05
0.273409, 0.641808, 0.137251, -1.46887, 0.000165862, 0.644069, 8.50281e-05
0.275429, 0.643244, 0.138133, -1.46866, 0.000165862, 0.644072, 8.50281e-05
0.277458, 0.644687, 0.13903, -1.46836, 0.000166053, 0.644084, 8.48483e-05
0.27949, 0.646164, 0.139923, -1.46801, 0.000165862, 0.644086, 8.49082e-05
0.281507, 0.647656, 0.140801, -1.46758, 0.000165382, 0.644092, 8.50281e-05
0.28351, 0.649157, 0.141651, -1.46708, 0.000166533, 0.644092, 8.47284e-05
0.285504, 0.650678, 0.142484, -1.46653, 0.000165958, 0.644105, 8.50281e-05
0.287492, 0.652207, 0.143303, -1.46591, 0.000166724, 0.644103, 8.47884e-05
0.289479, 0.653765, 0.14412, -1.46522, 0.000166245, 0.644112, 8.48483e-05
0.291456, 0.655316, 0.144916, -1.46451, 0.000166629, 0.644115, 8.52078e-05
0.293417, 0.656888, 0.145693, -1.46372, 0.000166341, 0.644117, 8.49682e-05
0.295371, 0.658449, 0.14646, -1.46287, 0.000165958, 0.644125, 8.47884e-05
0.297334, 0.660036, 0.147228, -1.46198, 0.000165095, 0.644126, 8.50281e-05
0.299297, 0.661618, 0.147996, -1.46105, 0.00016567, 0.644131, 8.47884e-05
0.30125, 0.663225, 0.148734, -1.46007, 0.000165862, 0.644132, 8.48483e-05
0.303193, 0.664848, 0.149449, -1.45906, 0.000165382, 0.644135, 8.52078e-05
0.305137, 0.666479, 0.150173, -1.45802, 0.000165382, 0.644136, 8.49682e-05
0.307069, 0.66812, 0.150874, -1.45692, 0.000166149, 0.644139, 8.47884e-05
0.309003, 0.669768, 0.151561, -1.45579, 0.000165478, 0.64414, 8.50281e-05
0.310933, 0.671425, 0.152255, -1.4546, 0.000166149, 0.644141, 8.48483e-05
0.312845, 0.67309, 0.1529, -1.4534, 0.000166724, 0.644145, 8.49682e-05
0.314752, 0.674773, 0.153535, -1.45218, 0.00016567, 0.644148, 8.50281e-05
0.316666, 0.676457, 0.154199, -1.45093, 0.000164232, 0.64415, 8.48483e-05
0.318574, 0.67816, 0.154837, -1.44964, 0.000164519, 0.644155, 8.49082e-05
0.320469, 0.67986, 0.155434, -1.44832, 0.000165574, 0.644157, 8.50281e-05
0.322356, 0.681567, 0.156033, -1.44697, 0.000165862, 0.644162, 8.48483e-05
0.32424, 0.683276, 0.156636, -1.4456, 0.00016567, 0.644164, 8.50281e-05
0.326114, 0.685006, 0.157206, -1.44421, 0.000165191, 0.644173, 8.49082e-05
0.327987, 0.686738, 0.157766, -1.44278, 0.000165382, 0.644171, 8.47284e-05
0.329859, 0.688479, 0.158324, -1.44131, 0.000165095, 0.644183, 8.50281e-05
0.331717, 0.690227, 0.158854, -1.43987, 0.000164328, 0.644188, 8.47884e-05
0.333562, 0.691987, 0.159358, -1.4384, 0.000163848, 0.644189, 8.49082e-05
0.335407, 0.69376, 0.159875, -1.43692, 0.000164232, 0.644191, 8.50281e-05
0.337257, 0.695533, 0.160388, -1.43539, 0.000165382, 0.644193, 8.47284e-05
0.339092, 0.697309, 0.160876, -1.43382, 0.000166053, 0.644195, 8.49082e-05
0.340918, 0.699087, 0.161329, -1.43227, 0.000165574, 0.644197, 8.49082e-05
0.342742, 0.70087, 0.161781, -1.43071, 0.000165382, 0.644198, 8.47284e-05
0.344571, 0.702653, 0.162235, -1.42913, 0.000164519, 0.644199, 8.50281e-05
0.346385, 0.704452, 0.162667, -1.42753, 0.000164328, 0.644202, 8.49682e-05
0.348194, 0.706245, 0.16308, -1.42592, 0.000164711, 0.644203, 8.49682e-05
0.349999, 0.708051, 0.163487, -1.42429, 0.000165191, 0.64421, 8.50281e-05
0.351797, 0.70985, 0.163883, -1.42265, 0.000165286, 0.64421, 8.48483e-05
0.353585, 0.711654, 0.164265, -1.421, 0.000163944, 0.644211, 8.49682e-05
0.35537, 0.713464, 0.164626, -1.41934, 0.000163657, 0.644214, 8.50281e-05
0.357159, 0.715284, 0.164983, -1.41772, 0.000164903, 0.644215, 8.48483e-05
0.358941, 0.71711, 0.165331, -1.41605, 0.000165095, 0.644215, 8.49682e-05
0.360714, 0.718919, 0.165655, -1.41435, 0.000164807, 0.644217, 8.50281e-05
0.362482, 0.72074, 0.165964, -1.41265, 0.000165095, 0.644216, 8.48483e-05
0.364249, 0.722562, 0.166266, -1.41098, 0.000164807, 0.64422, 8.50281e-05
0.366012, 0.724402, 0.166552, -1.40931, 0.000164615, 0.644221, 8.49082e-05
0.367776, 0.726236, 0.166832, -1.40761, 0.000164807, 0.644219, 8.47284e-05
0.369531, 0.728077, 0.167112, -1.40589, 0.000165862, 0.644224, 8.50281e-05
0.371268, 0.729917, 0.167371, -1.40419, 0.000165191, 0.644225, 8.47884e-05
0.372999, 0.731764, 0.167606, -1.40246, 0.000163273, 0.644226, 8.47884e-05
0.374735, 0.733615, 0.167833, -1.40073, 0.000162794, 0.644227, 8.50281e-05
0.376478, 0.735474, 0.168053, -1.39902, 0.000164519, 0.644229, 8.48483e-05
0.378208, 0.737338, 0.168252, -1.39733, 0.000164807, 0.644228, 8.47884e-05
0.379925, 0.739187, 0.168426, -1.39557, 0.000164615, 0.644225, 8.50281e-05
0.381635, 0.741026, 0.168594, -1.39379, 0.000164615, 0.64423, 8.48483e-05
0.383348, 0.742887, 0.168766, -1.39204, 0.000164615, 0.64423, 8.49682e-05
0.38505, 0.744754, 0.168918, -1.39034, 0.00016404, 0.644234, 8.50281e-05
0.386749, 0.746622, 0.169058, -1.38858, 0.000164615, 0.644226, 8.47284e-05
0.388441, 0.748489, 0.169192, -1.38682, 0.000164328, 0.644241, 8.5088e-05
0.390123, 0.750349, 0.169309, -1.38508, 0.000164903, 0.644237, 8.49082e-05
0.391794, 0.752215, 0.169401, -1.38331, 0.000164711, 0.644237, 8.48483e-05
0.393466, 0.754074, 0.16948, -1.38154, 0.000164999, 0.644242, 8.49082e-05
0.395141, 0.755947, 0.169556, -1.37979, 0.000164136, 0.644242, 8.49082e-05
0.39681, 0.757821, 0.169614, -1.37807, 0.000164328, 0.644241, 8.47284e-05
0.398461, 0.759685, 0.169649, -1.3763, 0.000164136, 0.644241, 8.50281e-05
0.40011, 0.761537, 0.169664, -1.37452, 0.000164232, 0.644244, 8.49082e-05
0.401763, 0.76341, 0.169678, -1.37278, 0.000163752, 0.644243, 8.47284e-05
0.403415, 0.765289, 0.169683, -1.37105, 0.000163657, 0.644244, 8.50281e-05
0.405046, 0.767172, 0.169681, -1.36931, 0.000164328, 0.644243, 8.47884e-05
0.406674, 0.769053, 0.169681, -1.36757, 0.000164807, 0.644247, 8.48483e-05
0.408296, 0.770934, 0.169681, -1.36583, 0.000164424, 0.644243, 8.50281e-05
0.409903, 0.772818, 0.169678, -1.36407, 0.000164136, 0.644247, 8.49682e-05
0.411494, 0.774698, 0.169676, -1.36231, 0.000163944, 0.644247, 8.48483e-05
0.413077, 0.776581, 0.169678, -1.36057, 0.000164232, 0.644248, 8.50281e-05
0.41466, 0.778469, 0.169676, -1.35886, 0.00016404, 0.644247, 8.47884e-05
0.416237, 0.78035, 0.169677, -1.35712, 0.000164136, 0.644246, 8.49082e-05
0.417801, 0.782226, 0.169675, -1.35534, 0.000164232, 0.64425, 8.49082e-05
0.419359, 0.784104, 0.169672, -1.3536, 0.000164807, 0.644251, 8.47284e-05
0.420904, 0.785991, 0.169673, -1.35187, 0.000164232, 0.644251, 8.49082e-05
0.422442, 0.787884, 0.169671, -1.35016, 0.000163177, 0.644252, 8.52078e-05
0.423968, 0.789766, 0.169667, -1.34844, 0.00016404, 0.64425, 8.48483e-05
0.42549, 0.791651, 0.169667, -1.3467, 0.000164999, 0.644251, 8.49682e-05
0.427004, 0.793525, 0.169666, -1.34498, 0.000164519, 0.644253, 8.49082e-05
0.428502, 0.795406, 0.169663, -1.34324, 0.000163848, 0.644252, 8.48483e-05
0.429991, 0.797274, 0.169658, -1.34152, 0.000163944, 0.644253, 8.50281e-05
0.431466, 0.799149, 0.169657, -1.33981, 0.000163657, 0.644257, 8.47884e-05
0.432933, 0.801024, 0.169657, -1.33812, 0.000163657, 0.644253, 8.48483e-05
0.434404, 0.802899, 0.169655, -1.3364, 0.000163944, 0.644258, 8.50281e-05
0.435862, 0.804767, 0.169651, -1.33469, 0.000165382, 0.644256, 8.49682e-05
0.4373, 0.806647, 0.16965, -1.33299, 0.000165286, 0.644263, 8.48483e-05
0.438735, 0.808526, 0.169641, -1.33133, 0.000162985, 0.644266, 8.50281e-05
0.440156, 0.810411, 0.169637, -1.32965, 0.000161835, 0.644262, 8.48483e-05
0.44157, 0.812297, 0.169633, -1.32797, 0.000162027, 0.644269, 8.49082e-05
0.44297, 0.814173, 0.169624, -1.3263, 0.000163944, 0.644266, 8.50281e-05
0.444344, 0.816044, 0.169618, -1.32461, 0.000163944, 0.644267, 8.48483e-05
0.44572, 0.817903, 0.169616, -1.32293, 0.000163944, 0.644269, 8.50281e-05
0.447096, 0.819768, 0.169611, -1.32126, 0.000164328, 0.644268, 8.47884e-05
0.44845, 0.821646, 0.169599, -1.31963, 0.000163944, 0.64427, 8.49082e-05
0.449794, 0.82352, 0.169589, -1.31799, 0.000162602, 0.644269, 8.50281e-05
0.451119, 0.825377, 0.169584, -1.31629, 0.000162314, 0.644272, 8.47284e-05
0.452426, 0.827243, 0.16958, -1.31463, 0.000163081, 0.644274, 8.50281e-05
0.453738, 0.82911, 0.169568, -1.31302, 0.000164136, 0.644277, 8.49082e-05
0.455038, 0.830979, 0.169557, -1.3114, 0.000165191, 0.644278, 8.48483e-05
0.456327, 0.83284, 0.169547, -1.30977, 0.00016404, 0.644278, 8.50281e-05
0.457597, 0.834695, 0.169533, -1.30813, 0.000163081, 0.644278, 8.49682e-05
0.458841, 0.836542, 0.16952, -1.30652, 0.000162027, 0.64428, 8.48483e-05
0.460088, 0.838385, 0.169509, -1.30488, 0.000162794, 0.644278, 8.50281e-05
0.461314, 0.840221, 0.169497, -1.30324, 0.00016289, 0.64428, 8.49082e-05
0.462538, 0.842069, 0.169477, -1.30165, 0.000163848, 0.644283, 8.48483e-05
0.463734, 0.843913, 0.169463, -1.30009, 0.000163848, 0.644283, 8.50281e-05
0.464932, 0.845757, 0.169456, -1.29849, 0.000164232, 0.644288, 8.48483e-05
0.466117, 0.847593, 0.169441, -1.29688, 0.000163369, 0.64429, 8.48483e-05
0.467284, 0.849433, 0.169419, -1.29532, 0.000161835, 0.64429, 8.50281e-05
0.46843, 0.851283, 0.169397, -1.29376, 0.00016241, 0.644293, 8.47884e-05
0.469562, 0.853116, 0.169379, -1.29223, 0.00016289, 0.644293, 8.49682e-05
0.470683, 0.854955, 0.16936, -1.29066, 0.000163369, 0.644294, 8.50281e-05
0.471789, 0.856772, 0.169341, -1.28912, 0.000163657, 0.644299, 8.48483e-05
0.472896, 0.858592, 0.169322, -1.28756, 0.000163657, 0.6443, 8.49682e-05
0.473987, 0.860408, 0.169303, -1.28602, 0.000163465, 0.6443, 8.50281e-05
0.475064, 0.862226, 0.169279, -1.28449, 0.00016289, 0.644305, 8.48483e-05
0.476117, 0.864037, 0.169254, -1.28296, 0.00016289, 0.644303, 8.49682e-05
0.477161, 0.865855, 0.169233, -1.28145, 0.000163177, 0.644307, 8.50281e-05
0.478185, 0.867669, 0.169208, -1.27998, 0.000163848, 0.644308, 8.48483e-05
0.479198, 0.869479, 0.169186, -1.27847, 0.000163944, 0.644306, 8.47884e-05
0.4802, 0.871277, 0.169165, -1.27694, 0.00016241, 0.644314, 8.50281e-05
0.481179, 0.873076, 0.169138, -1.27546, 0.000163081, 0.644313, 8.49682e-05
0.482148, 0.874873, 0.169111, -1.27399, 0.000162985, 0.644314, 8.49682e-05
0.483092, 0.876657, 0.169082, -1.27253, 0.000163561, 0.644316, 8.50281e-05
0.48405, 0.878438, 0.169062, -1.27105, 0.000163657, 0.644314, 8.48483e-05
0.484974, 0.880211, 0.169029, -1.2696, 0.000163177, 0.644319, 8.49082e-05
0.485898, 0.881987, 0.168995, -1.26816, 0.000163369, 0.64432, 8.49082e-05
0.486787, 0.883756, 0.168911, -1.2667, 0.000163081, 0.644318, 8.48483e-05
0.487676, 0.885528, 0.168765, -1.26524, 0.000162985, 0.644321, 8.49082e-05
0.488595, 0.887293, 0.168577, -1.26382, 0.000163944, 0.644322, 8.50281e-05
0.4895, 0.889053, 0.168339, -1.26242, 0.000164328, 0.644324, 8.48483e-05
0.490416, 0.890814, 0.168048, -1.26104, 0.000163944, 0.644324, 8.49082e-05
0.491298, 0.892559, 0.167709, -1.25965, 0.000162314, 0.644325, 8.50281e-05
0.492189, 0.894293, 0.167337, -1.25822, 0.000163848, 0.644326, 8.49682e-05
0.493082, 0.896023, 0.166958, -1.25683, 0.00016289, 0.644332, 8.50281e-05
0.493948, 0.897746, 0.166537, -1.25546, 0.000163369, 0.644331, 8.49082e-05
0.494823, 0.899466, 0.166075, -1.2541, 0.000163465, 0.644333, 8.48483e-05
0.495674, 0.901182, 0.16558, -1.25276, 0.000163369, 0.644336, 8.50281e-05
0.496539, 0.902889, 0.165079, -1.25141, 0.000163752, 0.644334, 8.49082e-05
0.497391, 0.904588, 0.164565, -1.25007, 0.000163657, 0.644339, 8.48483e-05
0.498209, 0.906284, 0.163999, -1.24875, 0.00016404, 0.64434, 8.50281e-05
0.49905, 0.90798, 0.163432, -1.24744, 0.00016289, 0.64434, 8.49682e-05
0.499871, 0.909668, 0.162848, -1.24611, 0.000162698, 0.64434, 8.48483e-05
0.500676, 0.91135, 0.162238, -1.2448, 0.000163944, 0.644342, 8.50281e-05
0.501478, 0.913023, 0.161602, -1.24352, 0.000164136, 0.644342, 8.49682e-05
0.502252, 0.914696, 0.160941, -1.24224, 0.000164711, 0.644341, 8.47284e-05
0.503048, 0.916357, 0.160293, -1.24098, 0.000163465, 0.644346, 8.50281e-05
0.503846, 0.918014, 0.159637, -1.23969, 0.000163944, 0.644344, 8.49682e-05
0.504604, 0.919657, 0.158955, -1.2384, 0.000163848, 0.644351, 8.48483e-05
0.505375, 0.921304, 0.158252, -1.23716, 0.000163657, 0.64435, 8.50281e-05
0.506137, 0.922948, 0.157562, -1.23591, 0.000163369, 0.644355, 8.47884e-05
0.506881, 0.924583, 0.156855, -1.23469, 0.000164232, 0.644353, 8.48483e-05
0.50764, 0.926219, 0.156131, -1.23349, 0.000163848, 0.644361, 8.50281e-05
0.508384, 0.927844, 0.155401, -1.2323, 0.000164615, 0.644358, 8.49682e-05
0.509102, 0.929463, 0.154663, -1.23109, 0.000164328, 0.644362, 8.48483e-05
0.509841, 0.931075, 0.153922, -1.22991, 0.000163944, 0.644362, 8.50281e-05
0.510562, 0.93268, 0.153191, -1.22873, 0.000163561, 0.644364, 8.49682e-05
0.511257, 0.934275, 0.152428, -1.22756, 0.000163848, 0.644363, 8.48483e-05
0.511976, 0.935854, 0.151665, -1.22639, 0.000162985, 0.644366, 8.50281e-05
0.512685, 0.937421, 0.150912, -1.22522, 0.000163944, 0.644366, 8.49682e-05
0.513365, 0.938986, 0.150137, -1.22409, 0.000164136, 0.644368, 8.48483e-05
0.514065, 0.940552, 0.149366, -1.22299, 0.00016404, 0.644368, 8.52078e-05
0.514749, 0.94212, 0.14859, -1.22189, 0.000163273, 0.644367, 8.48483e-05
0.515402, 0.943669, 0.14779, -1.22077, 0.000164328, 0.644368, 8.49682e-05
0.516072, 0.945214, 0.147005, -1.21968, 0.000164232, 0.644371, 8.50281e-05
0.516739, 0.946753, 0.146202, -1.2186, 0.000164519, 0.644371, 8.47884e-05
0.517366, 0.948299, 0.145391, -1.21754, 0.000163752, 0.644371, 8.47884e-05
0.518006, 0.94983, 0.144599, -1.2165, 0.00016404, 0.644378, 8.50281e-05
0.518661, 0.951358, 0.143803, -1.21547, 0.000164232, 0.644377, 8.47884e-05
0.519279, 0.952875, 0.142984, -1.21444, 0.000164136, 0.644386, 8.47884e-05
0.519878, 0.954378, 0.142157, -1.21345, 0.000163944, 0.64439, 8.50281e-05
0.520501, 0.955879, 0.141345, -1.21244, 0.000163944, 0.644395, 8.48483e-05
0.521112, 0.957367, 0.140523, -1.21144, 0.000163944, 0.6444, 8.47884e-05
0.521681, 0.958868, 0.139693, -1.21046, 0.000163657, 0.644408, 8.50281e-05
0.522258, 0.960351, 0.138858, -1.20951, 0.000164136, 0.644421, 8.47884e-05
0.522858, 0.961839, 0.138043, -1.20854, 0.000163944, 0.644425, 8.48483e-05
0.523436, 0.963292, 0.137222, -1.20759, 0.00016404, 0.644441, 8.50281e-05
0.523984, 0.964765, 0.136381, -1.20667, 0.000164519, 0.64445, 8.47884e-05
0.524546, 0.966229, 0.135549, -1.20576, 0.000163944, 0.644465, 8.48483e-05
0.525114, 0.967701, 0.134704, -1.20486, 0.00016404, 0.644472, 8.52078e-05
0.525644, 0.96916, 0.133858, -1.20399, 0.000163369, 0.644493, 8.48483e-05
0.526158, 0.970601, 0.133015, -1.20313, 0.000165095, 0.644505, 8.48483e-05
0.526685, 0.972041, 0.132181, -1.20227, 0.000164519, 0.644514, 8.50281e-05
0.527237, 0.973461, 0.131351, -1.20142, 0.000165286, 0.644531, 8.47884e-05
0.527747, 0.97489, 0.130493, -1.20058, 0.000164328, 0.644543, 8.48483e-05
0.528227, 0.97629, 0.129633, -1.19973, 0.000164615, 0.644557, 8.50281e-05
0.528715, 0.977696, 0.128799, -1.1989, 0.000164519, 0.644576, 8.47884e-05
0.529226, 0.979105, 0.127965, -1.19813, 0.000164519, 0.644603, 8.48483e-05
0.529712, 0.980493, 0.127109, -1.19734, 0.000164615, 0.644622, 8.50281e-05
0.530148, 0.98187, 0.126229, -1.19657, 0.000164615, 0.644645, 8.47884e-05
0.530587, 0.983243, 0.125377, -1.19581, 0.000164519, 0.644666, 8.48483e-05
0.531056, 0.98462, 0.124555, -1.19508, 0.000164424, 0.644693, 8.50281e-05
0.531527, 0.985998, 0.123703, -1.19438, 0.000164615, 0.644713, 8.48483e-05
0.531944, 0.987373, 0.12281, -1.19367, 0.000164711, 0.644727, 8.47884e-05
0.532324, 0.988723, 0.121916, -1.19299, 0.000164615, 0.644754, 8.49682e-05
0.532717, 0.990067, 0.121061, -1.19231, 0.000165191, 0.644771, 8.46685e-05
0.533124, 0.991396, 0.120223, -1.19166, 0.000164519, 0.644798, 8.5088e-05
0.533519, 0.992721, 0.119341, -1.19101, 0.000164424, 0.644827, 8.50281e-05
0.533871, 0.994035, 0.118428, -1.19037, 0.000164328, 0.64486, 8.48483e-05
0.534196, 0.995343, 0.117537, -1.18974, 0.000164519, 0.644885, 8.50281e-05
0.53453, 0.99665, 0.116685, -1.18913, 0.000164328, 0.644921, 8.49082e-05
0.534873, 0.997959, 0.115846, -1.18853, 0.000164711, 0.644947, 8.47884e-05
0.535198, 0.999254, 0.114953, -1.18797, 0.000164424, 0.644985, 8.50281e-05
0.535507, 1.00054, 0.114046, -1.1874, 0.000164232, 0.645007, 8.48483e-05
0.535813, 1.00179, 0.113155, -1.18684, 0.000164519, 0.645039, 8.49682e-05
0.536106, 1.00306, 0.112281, -1.1863, 0.000164807, 0.645067, 8.50281e-05
0.536382, 1.00434, 0.111413, -1.18581, 0.000165382, 0.645097, 8.47284e-05
0.53663, 1.00562, 0.110515, -1.18534, 0.000164999, 0.645122, 8.49082e-05
0.53687, 1.00687, 0.109642, -1.18486, 0.000164807, 0.645147, 8.49682e-05
0.537112, 1.0081, 0.108776, -1.18439, 0.000164903, 0.645177, 8.47284e-05
0.537355, 1.00933, 0.107905, -1.18396, 0.000164519, 0.645207, 8.50281e-05
0.53759, 1.01056, 0.107004, -1.18353, 0.000164807, 0.645219, 8.49682e-05
0.537803, 1.01178, 0.106089, -1.18312, 0.000164903, 0.645239, 8.48483e-05
0.537988, 1.01298, 0.105191, -1.18272, 0.000164807, 0.645265, 8.50281e-05
0.538153, 1.01417, 0.104304, -1.18233, 0.000164711, 0.645286, 8.48483e-05
0.538315, 1.01535, 0.103418, -1.18196, 0.000164711, 0.645304, 8.47884e-05
0.538474, 1.01653, 0.102526, -1.1816, 0.000164807, 0.645323, 8.50281e-05
0.538616, 1.01771, 0.101637, -1.18127, 0.000165095, 0.64534, 8.48483e-05
0.53873, 1.01887, 0.100758, -1.18097, 0.000164807, 0.645367, 8.49682e-05
0.53882, 1.02003, 0.0998726, -1.18065, 0.000164615, 0.645379, 8.49082e-05
0.538899, 1.02116, 0.0989677, -1.18037, 0.000164615, 0.645412, 8.46685e-05
0.538979, 1.02231, 0.0980658, -1.1801, 0.000164807, 0.645432, 8.49082e-05
0.53905, 1.02344, 0.097161, -1.17987, 0.000164999, 0.645456, 8.5088e-05
0.539107, 1.02458, 0.0962743, -1.17965, 0.000165191, 0.64547, 8.47284e-05
0.539146, 1.02569, 0.0953805, -1.17944, 0.000164807, 0.645496, 8.50281e-05
0.539176, 1.0268, 0.0944849, -1.17925, 0.000165095, 0.645514, 8.49082e-05
0.539198, 1.0279, 0.0935942, -1.1791, 0.000165095, 0.645537, 8.47884e-05
0.539205, 1.02898, 0.0926974, -1.17895, 0.000164807, 0.645551, 8.50281e-05
0.539199, 1.03005, 0.0918101, -1.17881, 0.000164807, 0.645575, 8.49682e-05
0.539197, 1.03112, 0.0908959, -1.17869, 0.000165382, 0.645597, 8.48483e-05
0.539196, 1.03219, 0.0899904, -1.17858, 0.000164903, 0.645616, 8.49682e-05
0.53919, 1.03325, 0.0890647, -1.1785, 0.000165095, 0.645638, 8.49682e-05
0.539181, 1.03429, 0.0881384, -1.17841, 0.000164903, 0.645652, 8.48483e-05
0.539176, 1.03533, 0.0872035, -1.17837, 0.000165286, 0.645678, 8.50281e-05
0.539168, 1.03634, 0.0862604, -1.17834, 0.000165286, 0.645698, 8.48483e-05
0.53916, 1.03737, 0.085311, -1.17832, 0.000165286, 0.64572, 8.47884e-05
0.53915, 1.03838, 0.0843499, -1.17832, 0.000165095, 0.645753, 8.49682e-05
0.539142, 1.03939, 0.0833845, -1.17832, 0.000165286, 0.645785, 8.48483e-05
0.539132, 1.04037, 0.0824113, -1.17833, 0.000165095, 0.645823, 8.47884e-05
0.539117, 1.04136, 0.0814259, -1.17833, 0.000165191, 0.64586, 8.50281e-05
0.5391, 1.04235, 0.0804248, -1.17834, 0.000165286, 0.645918, 8.48483e-05
0.539081, 1.04334, 0.079406, -1.17834, 0.000165382, 0.645972, 8.50281e-05
0.539062, 1.04434, 0.0784024, -1.17835, 0.000165095, 0.646047, 8.50281e-05
0.539042, 1.04531, 0.0773854, -1.17834, 0.000165478, 0.646128, 8.46087e-05
0.539022, 1.04628, 0.0763695, -1.17835, 0.000164232, 0.646222, 8.49082e-05
0.539, 1.04723, 0.0753161, -1.17835, 0.000165382, 0.646322, 8.49082e-05
0.538975, 1.04819, 0.0742776, -1.17835, 0.000165191, 0.646422, 8.48483e-05
0.538951, 1.04912, 0.073233, -1.17835, 0.000166437, 0.646543, 8.50281e-05
0.538921, 1.05006, 0.0722031, -1.17835, 0.000166149, 0.646673, 8.49082e-05
0.538892, 1.051, 0.0711334, -1.17836, 0.000166245, 0.646816, 8.47284e-05
0.538853, 1.05193, 0.0700613, -1.17836, 0.000165478, 0.646965, 8.50281e-05
0.538766, 1.05284, 0.068979, -1.17837, 0.000165766, 0.647126, 8.47884e-05
0.53863, 1.05375, 0.0679251, -1.17837, 0.000165766, 0.647281, 8.48483e-05
0.538481, 1.05465, 0.0669028, -1.17838, 0.000166053, 0.647456, 8.50281e-05
0.53833, 1.05554, 0.065902, -1.17839, 0.000166341, 0.647624, 8.48483e-05
0.538142, 1.05644, 0.0648895, -1.1784, 0.000166053, 0.647787, 8.49082e-05
0.537918, 1.05733, 0.063861, -1.17842, 0.000165862, 0.647966, 8.50281e-05
0.537678, 1.05821, 0.0628399, -1.17842, 0.000165958, 0.648142, 8.48483e-05
0.537425, 1.05908, 0.0618325, -1.17844, 0.000166149, 0.648319, 8.49082e-05
0.537136, 1.05993, 0.0608169, -1.17845, 0.000166437, 0.648498, 8.50281e-05
0.536806, 1.06078, 0.0597921, -1.17846, 0.000166245, 0.648692, 8.48483e-05
0.536465, 1.06164, 0.0587969, -1.17849, 0.000166149, 0.648906, 8.47884e-05
0.536128, 1.0625, 0.0578303, -1.1785, 0.00016567, 0.649126, 8.50281e-05
0.535786, 1.06337, 0.0568748, -1.17852, 0.000166053, 0.649339, 8.48483e-05
0.535415, 1.0642, 0.055869, -1.17854, 0.000166149, 0.649568, 8.49082e-05
0.535003, 1.06504, 0.0548525, -1.17855, 0.000166245, 0.649783, 8.50281e-05
0.534558, 1.06587, 0.0538464, -1.17857, 0.000166724, 0.650004, 8.47284e-05
0.534106, 1.0667, 0.0528921, -1.17859, 0.000166245, 0.650224, 8.49082e-05
0.533658, 1.06755, 0.0519338, -1.17862, 0.000166245, 0.650456, 8.50281e-05
0.5332, 1.06838, 0.05096, -1.17864, 0.000166437, 0.650698, 8.48483e-05
0.532709, 1.0692, 0.049967, -1.17867, 0.000166437, 0.650953, 8.49082e-05
0.532183, 1.07002, 0.0489812, -1.1787, 0.000166629, 0.651214, 8.50281e-05
0.531659, 1.07083, 0.0480275, -1.17873, 0.000166724, 0.651469, 8.47884e-05
0.531149, 1.07164, 0.0470809, -1.1788, 0.000166437, 0.651724, 8.47884e-05
0.530608, 1.07244, 0.0461165, -1.17892, 0.000165862, 0.651972, 8.50281e-05
0.530014, 1.07321, 0.0451284, -1.17907, 0.000166437, 0.65219, 8.49682e-05
0.529428, 1.07396, 0.0441722, -1.17926, 0.00016682, 0.652403, 8.49082e-05
0.528879, 1.0747, 0.0432544, -1.17954, 0.000166629, 0.652649, 8.52078e-05
0.528298, 1.07542, 0.04232, -1.17987, 0.000166437, 0.652909, 8.47884e-05
0.527637, 1.07614, 0.0413401, -1.18023, 0.000166245, 0.653157, 8.49682e-05
0.526968, 1.07684, 0.0403517, -1.18062, 0.000166437, 0.653394, 8.49682e-05
0.526334, 1.07754, 0.0394174, -1.18104, 0.000166724, 0.653619, 8.46685e-05
0.525679, 1.07823, 0.0384911, -1.18154, 0.000166437, 0.653863, 8.49082e-05
0.524986, 1.07891, 0.037555, -1.18206, 0.000166053, 0.654101, 8.49082e-05
0.52429, 1.07956, 0.036595, -1.18258, 0.000166724, 0.654308, 8.47284e-05
0.523577, 1.08022, 0.0356337, -1.18315, 0.000166629, 0.654524, 8.49082e-05
0.522844, 1.08088, 0.0346985, -1.18379, 0.000166437, 0.654766, 8.49082e-05
0.522118, 1.08153, 0.0337695, -1.18444, 0.000166724, 0.655012, 8.46685e-05
0.521361, 1.08216, 0.0328329, -1.1851, 0.000166245, 0.655237, 8.52078e-05
0.520568, 1.08279, 0.0318654, -1.18582, 0.00016682, 0.655464, 8.48483e-05
0.519806, 1.0834, 0.03094, -1.18657, 0.000166724, 0.655698, 8.47284e-05
0.519033, 1.08398, 0.030013, -1.18731, 0.000167012, 0.65593, 8.50281e-05
0.51822, 1.08457, 0.0290791, -1.1881, 0.000166916, 0.65616, 8.49082e-05
0.517407, 1.08517, 0.0281271, -1.18891, 0.000167012, 0.656371, 8.48483e-05
0.516558, 1.08575, 0.0271805, -1.18974, 0.000166629, 0.656598, 8.49682e-05
0.515716, 1.08631, 0.026254, -1.19059, 0.000166724, 0.656842, 8.49082e-05
0.514877, 1.08686, 0.0253284, -1.19145, 0.000166724, 0.657085, 8.47284e-05
0.513998, 1.08739, 0.0243821, -1.19233, 0.000166629, 0.657321, 8.49082e-05
0.513129, 1.08791, 0.0234356, -1.19323, 0.000166629, 0.657537, 8.50281e-05
0.512227, 1.08842, 0.0224943, -1.19416, 0.000166437, 0.657767, 8.48483e-05
0.511323, 1.08893, 0.0215534, -1.19512, 0.00016682, 0.657997, 8.47884e-05
0.510402, 1.08944, 0.0206087, -1.19607, 0.000167012, 0.658213, 8.50281e-05
0.50946, 1.08992, 0.019661, -1.19706, 0.000167875, 0.658434, 8.48483e-05
0.508533, 1.0904, 0.0187303, -1.19807, 0.000167396, 0.658655, 8.47884e-05
0.507584, 1.09086, 0.0178102, -1.1991, 0.00016682, 0.658899, 8.49682e-05
0.506644, 1.09133, 0.0168673, -1.20014, 0.000167492, 0.659139, 8.47884e-05
0.505673, 1.09179, 0.015931, -1.20119, 0.000167012, 0.65937, 8.48483e-05
0.504708, 1.09224, 0.0149954, -1.20228, 0.000167875, 0.659601, 8.50281e-05
0.503734, 1.09267, 0.014077, -1.20335, 0.000167108, 0.659825, 8.48483e-05
0.502746, 1.09309, 0.0131483, -1.20445, 0.000167396, 0.660053, 8.49082e-05
0.501752, 1.09351, 0.0122038, -1.20555, 0.000167971, 0.660268, 8.5088e-05
0.500736, 1.09393, 0.0112788, -1.20669, 0.000167875, 0.660511, 8.47284e-05
0.499746, 1.09434, 0.0103517, -1.20785, 0.00016845, 0.660755, 8.49082e-05
0.498714, 1.09473, 0.00943908, -1.20901, 0.000167012, 0.660992, 8.49082e-05
0.497689, 1.09511, 0.00849424, -1.21018, 0.000167971, 0.661235, 8.49082e-05
0.496622, 1.0955, 0.00756372, -1.21136, 0.000167396, 0.661458, 8.50281e-05
0.495576, 1.09589, 0.00663596, -1.21256, 0.00016893, 0.661692, 8.48483e-05
0.494498, 1.09626, 0.00571084, -1.21375, 0.000168354, 0.661901, 8.5088e-05
0.493418, 1.09659, 0.00477853, -1.21496, 0.000168354, 0.662125, 8.47884e-05
0.492316, 1.09692, 0.0038322, -1.21617, 0.000168354, 0.662345, 8.47884e-05
0.49121, 1.09725, 0.0028861, -1.21741, 0.000168163, 0.66258, 8.50281e-05
0.490075, 1.09759, 0.00193557, -1.21866, 0.000168546, 0.662813, 8.48483e-05
0.488936, 1.09793, 0.000993312, -1.21994, 0.000168354, 0.663035, 8.49082e-05
0.487782, 1.09825, 5.87826e-05, -1.22122, 0.000168354, 0.663256, 8.48483e-05
0.486635, 1.09855, -0.000879283, -1.2225, 0.000168738, 0.663476, 8.47884e-05
0.485467, 1.09883, -0.00180776, -1.22379, 0.000167971, 0.663697, 8.50281e-05
0.484305, 1.09911, -0.00275577, -1.22508, 0.000168738, 0.663897, 8.48483e-05
0.483107, 1.09941, -0.00369965, -1.2264, 0.000168163, 0.664105, 8.49082e-05
0.481908, 1.09971, -0.00464221, -1.22775, 0.00016893, 0.664329, 8.47884e-05
0.480691, 1.10001, -0.0055762, -1.22908, 0.000168354, 0.664564, 8.49082e-05
0.47949, 1.10028, -0.00650354, -1.2304, 0.000168738, 0.664784, 8.49082e-05
0.478269, 1.10053, -0.00745143, -1.23172, 0.000168738, 0.664989, 8.46685e-05
0.47703, 1.10078, -0.00838404, -1.23306, 0.000168258, 0.665198, 8.50281e-05
0.475788, 1.10103, -0.00933092, -1.23441, 0.000168738, 0.665408, 8.47884e-05
0.474522, 1.10128, -0.010265, -1.23576, 0.000168258, 0.665621, 8.49082e-05
0.473261, 1.10153, -0.0112153, -1.23712, 0.00016845, 0.665822, 8.49082e-05
0.471976, 1.10177, -0.0121614, -1.2385, 0.000168067, 0.66602, 8.47884e-05
0.47068, 1.10199, -0.0131133, -1.2399, 0.000167875, 0.666222, 8.49082e-05
0.469377, 1.10221, -0.0140648, -1.24127, 0.00016845, 0.666428, 8.47884e-05
0.468063, 1.10243, -0.0150072, -1.24265, 0.000167875, 0.666641, 8.49082e-05
0.466752, 1.10263, -0.0159604, -1.24402, 0.000169121, 0.666841, 8.49082e-05
0.465413, 1.10283, -0.0169123, -1.24541, 0.00016893, 0.66705, 8.49082e-05
0.464069, 1.10304, -0.0178741, -1.24684, 0.00016893, 0.667254, 8.49082e-05
0.462706, 1.10323, -0.0188438, -1.24828, 0.000168738, 0.667464, 8.47884e-05
0.461334, 1.10342, -0.0198012, -1.24972, 0.00016845, 0.667661, 8.49082e-05
0.459975, 1.1036, -0.0207512, -1.25113, 0.00016893, 0.667839, 8.48483e-05
0.458601, 1.10378, -0.0216883, -1.25255, 0.000168642, 0.668017, 8.49082e-05
0.457202, 1.10396, -0.022661, -1.25399, 0.000169313, 0.668202, 8.47884e-05
0.455803, 1.10413, -0.0236273, -1.25542, 0.000169505, 0.668399, 8.49682e-05
0.454403, 1.1043, -0.0245867, -1.25686, 0.00016893, 0.668597, 8.50281e-05
0.452994, 1.10446, -0.0255258, -1.25831, 0.000169026, 0.668788, 8.48483e-05
0.451568, 1.10462, -0.0264888, -1.25979, 0.000169313, 0.668982, 8.49082e-05
0.450119, 1.10477, -0.0274628, -1.26126, 0.000169026, 0.669177, 8.48483e-05
0.448671, 1.10493, -0.0284218, -1.26274, 0.000168738, 0.669356, 8.49082e-05
0.447225, 1.10507, -0.0293867, -1.2642, 0.000169026, 0.669521, 8.50281e-05
0.445758, 1.10521, -0.0303415, -1.26567, 0.00016893, 0.669691, 8.47884e-05
0.444286, 1.10534, -0.0313106, -1.26717, 0.000168834, 0.669886, 8.50281e-05
0.442795, 1.10547, -0.0322805, -1.26867, 0.000168738, 0.670069, 8.47884e-05
0.441288, 1.1056, -0.0332562, -1.27015, 0.00016893, 0.670237, 8.49082e-05
0.439783, 1.10572, -0.0342235, -1.27161, 0.000169313, 0.670403, 8.47884e-05
0.43827, 1.10583, -0.0351893, -1.27309, 0.000169505, 0.670597, 8.49682e-05
0.436732, 1.10595, -0.0361714, -1.27458, 0.00016893, 0.670792, 8.50281e-05
0.43518, 1.10604, -0.0371639, -1.27606, 0.000169121, 0.670969, 8.48483e-05
0.43362, 1.10615, -0.0381642, -1.27755, 0.000169505, 0.671125, 8.50281e-05
0.432055, 1.10626, -0.039147, -1.27907, 0.000170176, 0.671295, 8.47884e-05
0.430468, 1.10636, -0.0401266, -1.28058, 0.000169792, 0.67147, 8.49082e-05
0.428874, 1.10645, -0.0411047, -1.28207, 0.000169313, 0.671622, 8.49082e-05
0.427278, 1.10654, -0.0421051, -1.28355, 0.000169888, 0.671744, 8.48483e-05
0.425675, 1.10663, -0.0431034, -1.28506, 0.000169601, 0.671891, 8.49082e-05
0.424065, 1.10673, -0.0440854, -1.28659, 0.000169505, 0.672061, 8.47884e-05
0.422439, 1.10682, -0.0450672, -1.28813, 0.000169409, 0.672236, 8.49082e-05
0.420809, 1.1069, -0.0460567, -1.28963, 0.000169409, 0.672381, 8.50281e-05
0.419178, 1.10698, -0.0470515, -1.29113, 0.000169313, 0.672518, 8.47884e-05
0.417528, 1.10706, -0.0480423, -1.29265, 0.000169026, 0.672675, 8.49082e-05
0.415865, 1.10714, -0.0490457, -1.29417, 0.000169697, 0.672839, 8.47884e-05
0.414197, 1.1072, -0.0500467, -1.29568, 0.000169792, 0.672994, 8.49082e-05
0.412525, 1.10727, -0.0510526, -1.29719, 0.000169313, 0.673125, 8.49082e-05
0.410837, 1.10734, -0.0520566, -1.29873, 0.000169313, 0.673259, 8.47884e-05
0.409133, 1.1074, -0.05306, -1.30026, 0.000168834, 0.673405, 8.50281e-05
0.407427, 1.10746, -0.0540642, -1.3018, 0.000169697, 0.673546, 8.48483e-05
0.405718, 1.10751, -0.0550704, -1.3033, 0.00017008, 0.673657, 8.47884e-05
0.40399, 1.10756, -0.0560887, -1.30481, 0.000169792, 0.673764, 8.49082e-05
0.402237, 1.10762, -0.0571262, -1.30635, 0.000169888, 0.673882, 8.46685e-05
0.400484, 1.10767, -0.0581591, -1.30788, 0.000169601, 0.674016, 8.49082e-05
0.398737, 1.10772, -0.0591662, -1.30939, 0.000169697, 0.674142, 8.49082e-05
0.396975, 1.10775, -0.0601791, -1.31088, 0.000169601, 0.674251, 8.49682e-05
0.395189, 1.10779, -0.0612042, -1.31239, 0.000169026, 0.674364, 8.49082e-05
0.393391, 1.10784, -0.062259, -1.3139, 0.000169121, 0.674481, 8.48483e-05
0.391594, 1.10787, -0.0632971, -1.3154, 0.000169217, 0.674598, 8.50281e-05
0.389799, 1.10791, -0.0643225, -1.31691, 0.000170272, 0.674703, 8.49082e-05
0.388, 1.10794, -0.0653321, -1.31843, 0.000170272, 0.674809, 8.49082e-05
0.386188, 1.10797, -0.0663676, -1.31994, 0.000169792, 0.674914, 8.49682e-05
0.384363, 1.10801, -0.0674029, -1.32144, 0.000169697, 0.675017, 8.47884e-05
0.38252, 1.10803, -0.0684563, -1.3229, 0.00017056, 0.675102, 8.49082e-05
0.380681, 1.10806, -0.0694959, -1.32439, 0.000171518, 0.675198, 8.49682e-05
0.378838, 1.10809, -0.0705274, -1.32592, 0.000170751, 0.675309, 8.49082e-05
0.376983, 1.10812, -0.0715667, -1.32743, 0.000169792, 0.675409, 8.50281e-05
0.375107, 1.10815, -0.0726202, -1.32891, 0.00017008, 0.675481, 8.46685e-05
0.373218, 1.10816, -0.0736783, -1.33038, 0.000170368, 0.675552, 8.49082e-05
0.371322, 1.10819, -0.074736, -1.33186, 0.000170176, 0.675644, 8.49082e-05
0.369415, 1.10821, -0.07579, -1.33334, 0.000169697, 0.675737, 8.46685e-05
0.367505, 1.10822, -0.076856, -1.33481, 0.000170368, 0.6758, 8.49082e-05
0.365578, 1.10824, -0.0779323, -1.33628, 0.000170368, 0.675856, 8.47884e-05
0.36364, 1.10826, -0.0789965, -1.33776, 0.000169601, 0.67593, 8.47884e-05
0.361698, 1.10828, -0.0800525, -1.33923, 0.000169601, 0.676009, 8.49082e-05
0.359756, 1.1083, -0.081107, -1.3407, 0.000169697, 0.676091, 8.46685e-05
0.357799, 1.10832, -0.0821919, -1.34213, 0.000169792, 0.676149, 8.49082e-05
0.355828, 1.10834, -0.0832756, -1.34356, 0.000169984, 0.676219, 8.47884e-05
0.353851, 1.10837, -0.0843447, -1.34502, 0.000169792, 0.676309, 8.47884e-05
0.35187, 1.10839, -0.0854074, -1.34647, 0.000169984, 0.676395, 8.49082e-05
0.349887, 1.10842, -0.0864753, -1.34789, 0.000170272, 0.676454, 8.47884e-05
0.347902, 1.10844, -0.0875529, -1.34929, 0.000170464, 0.676504, 8.49082e-05
0.345898, 1.10846, -0.0886353, -1.35069, 0.000170368, 0.676561, 8.47284e-05
0.343879, 1.10849, -0.0897185, -1.35209, 0.000169984, 0.676627, 8.50281e-05
0.341863, 1.10851, -0.0907966, -1.35348, 0.000169888, 0.676687, 8.47884e-05
0.339851, 1.10853, -0.0918662, -1.35486, 0.000169984, 0.676734, 8.49082e-05
0.337822, 1.10855, -0.0929487, -1.35625, 0.000170176, 0.676777, 8.47884e-05
0.335772, 1.10857, -0.0940446, -1.35764, 0.000170368, 0.676829, 8.49082e-05
0.333708, 1.10859, -0.0951427, -1.35902, 0.000170368, 0.676884, 8.49082e-05
0.331634, 1.10861, -0.0962472, -1.36038, 0.00017056, 0.67692, 8.47884e-05
0.329555, 1.10863, -0.09736, -1.36171, 0.00017056, 0.676941, 8.49082e-05
0.32748, 1.10865, -0.098456, -1.36305, 0.000171231, 0.676974, 8.47284e-05
0.32539, 1.10867, -0.0995438, -1.3644, 0.000170655, 0.677017, 8.49082e-05
0.323283, 1.10869, -0.100639, -1.36576, 0.000170655, 0.67705, 8.47884e-05
0.321177, 1.10871, -0.101761, -1.36708, 0.000170655, 0.677062, 8.47284e-05
0.319071, 1.10873, -0.10287, -1.36839, 0.00017056, 0.677077, 8.47884e-05
0.316957, 1.10875, -0.103971, -1.36969, 0.000170655, 0.677103, 8.47884e-05
0.314828, 1.10877, -0.10506, -1.37099, 0.00017056, 0.677126, 8.47884e-05
0.312689, 1.10879, -0.106164, -1.37229, 0.000170368, 0.677149, 8.47884e-05
0.31055, 1.10881, -0.107283, -1.37356, 0.00017056, 0.677174, 8.49082e-05
0.30841, 1.10882, -0.108394, -1.37483, 0.000170368, 0.677196, 8.48483e-05
0.306265, 1.10884, -0.109499, -1.3761, 0.00017056, 0.677217, 8.49082e-05
0.304097, 1.10885, -0.1106, -1.37737, 0.00017056, 0.677241, 8.46685e-05
0.301927, 1.10887, -0.111712, -1.37863, 0.000170655, 0.677264, 8.49082e-05
0.299756, 1.10889, -0.112823, -1.37987, 0.000170176, 0.677277, 8.49082e-05
0.297579, 1.10891, -0.11394, -1.38108, 0.000170655, 0.677292, 8.47884e-05
0.295379, 1.10892, -0.115065, -1.38228, 0.000171039, 0.677311, 8.49082e-05
0.293152, 1.10894, -0.116201, -1.3835, 0.000170751, 0.677322, 8.47284e-05
0.290926, 1.10895, -0.117346, -1.3847, 0.00017056, 0.677327, 8.49082e-05
0.288715, 1.10896, -0.118464, -1.38589, 0.000170655, 0.677335, 8.47284e-05
0.286498, 1.10897, -0.119567, -1.38705, 0.000170655, 0.677339, 8.47884e-05
0.284247, 1.10898, -0.120698, -1.3882, 0.000171135, 0.677345, 8.5088e-05
0.28199, 1.109, -0.121843, -1.38935, 0.000170655, 0.677351, 8.47884e-05
0.279748, 1.10901, -0.122975, -1.39048, 0.000170464, 0.677357, 8.50281e-05
0.277506, 1.10902, -0.124082, -1.39161, 0.000170751, 0.677367, 8.47284e-05
0.275248, 1.10903, -0.125202, -1.39271, 0.000171135, 0.677372, 8.49082e-05
0.272968, 1.10904, -0.126328, -1.39382, 0.000170751, 0.677384, 8.47884e-05
0.27069, 1.10906, -0.127473, -1.39491, 0.000170943, 0.67739, 8.47884e-05
0.268422, 1.10907, -0.128601, -1.396, 0.000170368, 0.677398, 8.49082e-05
0.266148, 1.10908, -0.129725, -1.39706, 0.00017056, 0.677405, 8.48483e-05
0.263849, 1.10909, -0.130848, -1.39813, 0.000170943, 0.677413, 8.49082e-05
0.26155, 1.1091, -0.131975, -1.39918, 0.000171326, 0.677415, 8.48483e-05
0.259249, 1.10911, -0.133106, -1.40019, 0.000170751, 0.67742, 8.49082e-05
0.256938, 1.10912, -0.13425, -1.40119, 0.000170655, 0.677424, 8.49082e-05
0.2546, 1.10913, -0.135401, -1.4022, 0.00017008, 0.677429, 8.46685e-05
0.252248, 1.10914, -0.136566, -1.4032, 0.000170368, 0.677432, 8.49082e-05
0.249909, 1.10915, -0.137706, -1.40419, 0.000170847, 0.677436, 8.47884e-05
0.247581, 1.10916, -0.138831, -1.40516, 0.00017171, 0.677437, 8.49082e-05
0.245226, 1.10917, -0.139968, -1.40611, 0.000170943, 0.677443, 8.47884e-05
0.242853, 1.10918, -0.141133, -1.40705, 0.000170368, 0.677444, 8.49682e-05
0.240491, 1.10919, -0.142285, -1.40797, 0.000170368, 0.677445, 8.49082e-05
0.238132, 1.1092, -0.143417, -1.40889, 0.000170943, 0.677447, 8.48483e-05
0.235765, 1.10921, -0.144549, -1.40979, 0.000170943, 0.677448, 8.49082e-05
0.233381, 1.10921, -0.14569, -1.41068, 0.000171039, 0.677449, 8.47284e-05
0.230996, 1.10922, -0.146845, -1.41155, 0.00017056, 0.67745, 8.49082e-05
0.228618, 1.10923, -0.147987, -1.41239, 0.000170176, 0.677451, 8.48483e-05
0.226236, 1.10924, -0.149126, -1.41324, 0.000170368, 0.677453, 8.47884e-05
0.223835, 1.10925, -0.150265, -1.41408, 0.000171231, 0.677453, 8.47884e-05
0.221432, 1.10926, -0.151403, -1.4149, 0.000171902, 0.677454, 8.47884e-05
0.219027, 1.10927, -0.152546, -1.41572, 0.000171518, 0.677455, 8.50281e-05
0.216616, 1.10928, -0.153698, -1.4165, 0.000170943, 0.677456, 8.46685e-05
0.214176, 1.10929, -0.154857, -1.4173, 0.000170176, 0.677457, 8.47884e-05
0.211729, 1.1093, -0.156029, -1.41808, 0.000170751, 0.677456, 8.46685e-05
0.209293, 1.1093, -0.157176, -1.41881, 0.000170751, 0.677456, 8.49082e-05
0.206858, 1.10931, -0.158312, -1.41953, 0.000171518, 0.677457, 8.48483e-05
0.204401, 1.10931, -0.159454, -1.42024, 0.000171902, 0.677457, 8.47884e-05
0.201938, 1.10932, -0.160619, -1.42092, 0.000172093, 0.677458, 8.47884e-05
0.199477, 1.10933, -0.161776, -1.42162, 0.000170943, 0.677458, 8.47884e-05
0.197019, 1.10933, -0.16292, -1.42229, 0.000170943, 0.677458, 8.47884e-05
0.194551, 1.10934, -0.164053, -1.42293, 0.000171326, 0.677458, 8.48483e-05
0.192081, 1.10935, -0.165191, -1.42356, 0.000172093, 0.677458, 8.47884e-05
0.189614, 1.10936, -0.166332, -1.42419, 0.000172381, 0.677459, 8.46685e-05
0.18714, 1.10936, -0.167477, -1.42478, 0.000172093, 0.67746, 8.50281e-05
0.184655, 1.10937, -0.168629, -1.42536, 0.000171902, 0.67746, 8.47284e-05
0.182172, 1.10938, -0.169762, -1.42593, 0.000170751, 0.67746, 8.49082e-05
0.179685, 1.10938, -0.170892, -1.42647, 0.00017008, 0.67746, 8.47884e-05
0.177194, 1.10939, -0.172034, -1.42699, 0.000170943, 0.677461, 8.47884e-05
0.174683, 1.1094, -0.173188, -1.42751, 0.000171326, 0.67746, 8.47884e-05
0.172167, 1.1094, -0.174343, -1.42802, 0.000172765, 0.67746, 8.47884e-05
0.169654, 1.1094, -0.175492, -1.42849, 0.000173148, 0.67746, 8.49082e-05
0.167133, 1.10941, -0.176633, -1.42894, 0.000173052, 0.677461, 8.46685e-05
0.164606, 1.10941, -0.177774, -1.42939, 0.000172189, 0.677461, 8.49082e-05
0.162076, 1.10942, -0.1789, -1.42982, 0.00017171, 0.677461, 8.46685e-05
0.159542, 1.10942, -0.18005, -1.43024, 0.000171518, 0.677461, 8.47284e-05
0.157003, 1.10943, -0.181197, -1.43063, 0.000171326, 0.677461, 8.46685e-05
0.15446, 1.10943, -0.182335, -1.43101, 0.000171518, 0.677461, 8.47884e-05
0.151926, 1.10943, -0.18345, -1.43137, 0.000172573, 0.677461, 8.47884e-05
0.149395, 1.10944, -0.184561, -1.43171, 0.000173436, 0.67746, 8.49682e-05
0.146854, 1.10944, -0.185691, -1.43203, 0.000174107, 0.677461, 8.47284e-05
0.144304, 1.10944, -0.186835, -1.43234, 0.000173723, 0.677461, 8.47884e-05
0.141755, 1.10945, -0.187962, -1.43264, 0.00017286, 0.677461, 8.49082e-05
0.139208, 1.10945, -0.189076, -1.43291, 0.000171902, 0.677461, 8.48483e-05
0.136651, 1.10945, -0.190189, -1.43316, 0.000171902, 0.677462, 8.49082e-05
0.134084, 1.10946, -0.191311, -1.43339, 0.000172285, 0.677462, 8.49082e-05
0.131528, 1.10946, -0.192432, -1.43361, 0.000172477, 0.677461, 8.47884e-05
0.128967, 1.10946, -0.193541, -1.43381, 0.000172381, 0.677461, 8.47884e-05
0.126384, 1.10947, -0.194667, -1.43398, 0.000174011, 0.677461, 8.46685e-05
0.123794, 1.10947, -0.195799, -1.43415, 0.00017449, 0.67746, 8.47884e-05
0.121211, 1.10947, -0.196906, -1.4343, 0.000173819, 0.67746, 8.46685e-05
0.118631, 1.10948, -0.198004, -1.43444, 0.000173532, 0.677461, 8.49082e-05
0.116034, 1.10948, -0.199109, -1.43455, 0.00017286, 0.677461, 8.46685e-05
0.113437, 1.10948, -0.200227, -1.43465, 0.000173052, 0.67746, 8.47884e-05
0.11085, 1.10948, -0.201327, -1.43473, 0.00017334, 0.677461, 8.47884e-05
0.108266, 1.10949, -0.202402, -1.43479, 0.00017334, 0.677461, 8.47284e-05
0.105674, 1.10949, -0.203486, -1.43482, 0.000172573, 0.677461, 8.47884e-05
0.103078, 1.10949, -0.204569, -1.43484, 0.000173244, 0.677461, 8.47284e-05
0.100484, 1.1095, -0.205666, -1.43484, 0.000174011, 0.67746, 8.47884e-05
0.0978859, 1.1095, -0.206757, -1.43484, 0.000173532, 0.67746, 8.47884e-05
0.0952817, 1.1095, -0.207841, -1.43483, 0.000173244, 0.677461, 8.47884e-05
0.0926877, 1.1095, -0.208909, -1.43482, 0.000172765, 0.67746, 8.47884e-05
0.0900951, 1.1095, -0.209968, -1.43482, 0.000172956, 0.677459, 8.46685e-05
0.0874934, 1.1095, -0.211039, -1.43481, 0.000173436, 0.677459, 8.49082e-05
0.0848904, 1.1095, -0.212119, -1.4348, 0.000174011, 0.677459, 8.46685e-05
0.0822802, 1.1095, -0.21319, -1.4348, 0.000173052, 0.67746, 8.47884e-05
0.079664, 1.1095, -0.214272, -1.43479, 0.00017334, 0.677459, 8.47884e-05
0.077039, 1.1095, -0.215358, -1.43479, 0.000174011, 0.677459, 8.47284e-05
0.0744244, 1.1095, -0.216419, -1.43478, 0.000173915, 0.677459, 8.49082e-05
0.0718163, 1.1095, -0.21746, -1.43478, 0.000174299, 0.677459, 8.45487e-05
0.0691999, 1.1095, -0.218503, -1.43477, 0.00017334, 0.677459, 8.47884e-05
0.0665727, 1.1095, -0.219582, -1.43477, 0.000173052, 0.677459, 8.47884e-05
0.0639515, 1.1095, -0.220641, -1.43476, 0.000173532, 0.677459, 8.47884e-05
0.0613413, 1.1095, -0.221681, -1.43475, 0.000173436, 0.677459, 8.49082e-05
0.0587325, 1.1095, -0.222706, -1.43473, 0.00017286, 0.677459, 8.46685e-05
0.0561109, 1.1095, -0.223747, -1.43472, 0.000171998, 0.677459, 8.49082e-05
0.0535005, 1.1095, -0.22479, -1.4347, 0.000172381, 0.677458, 8.48483e-05
0.0508948, 1.1095, -0.225824, -1.43467, 0.000172765, 0.677457, 8.47884e-05
0.0482835, 1.1095, -0.22685, -1.43464, 0.000173819, 0.677458, 8.49082e-05
0.0456698, 1.1095, -0.227877, -1.43461, 0.000174011, 0.677457, 8.45487e-05
0.0430556, 1.1095, -0.228896, -1.43458, 0.000173819, 0.677457, 8.49082e-05
0.0404445, 1.1095, -0.229921, -1.43451, 0.000174586, 0.677457, 8.48483e-05
0.0378275, 1.1095, -0.230935, -1.43441, 0.000175257, 0.677458, 8.47884e-05
0.0352074, 1.1095, -0.231945, -1.4343, 0.000174778, 0.677458, 8.47884e-05
0.0325862, 1.1095, -0.232948, -1.43414, 0.000174682, 0.677458, 8.45487e-05
0.0299552, 1.1095, -0.23396, -1.43394, 0.000173436, 0.677459, 8.49082e-05
0.027317, 1.1095, -0.234979, -1.4337, 0.000173052, 0.677459, 8.47284e-05
0.0246863, 1.10951, -0.235959, -1.43344, 0.00017334, 0.677459, 8.47284e-05
0.0220575, 1.10951, -0.236931, -1.43315, 0.000173436, 0.677459, 8.47884e-05
0.0194272, 1.10951, -0.23791, -1.43282, 0.00017334, 0.677459, 8.47884e-05
0.0167887, 1.10951, -0.238915, -1.43247, 0.000173532, 0.677459, 8.49082e-05
0.0141704, 1.1095, -0.239893, -1.43209, 0.000173819, 0.677458, 8.46685e-05
0.0115594, 1.1095, -0.240852, -1.43167, 0.000174299, 0.677458, 8.49082e-05
0.00893891, 1.10951, -0.241792, -1.43121, 0.00017497, 0.677458, 8.45487e-05
0.00631928, 1.10951, -0.242763, -1.43075, 0.000175257, 0.677457, 8.47884e-05
0.00370085, 1.10951, -0.243718, -1.43026, 0.000174874, 0.677458, 8.47884e-05
0.00108859, 1.10951, -0.244672, -1.42975, 0.000175545, 0.677457, 8.46685e-05
-0.00153015, 1.10951, -0.245608, -1.4292, 0.000175353, 0.677458, 8.47884e-05
-0.00414498, 1.10951, -0.24654, -1.42864, 0.000175545, 0.677458, 8.46685e-05
-0.00675011, 1.10951, -0.247469, -1.42807, 0.000175545, 0.677458, 8.47884e-05
-0.00935776, 1.1095, -0.248389, -1.42746, 0.000174395, 0.677458, 8.46685e-05
-0.0119739, 1.1095, -0.249313, -1.42682, 0.000173532, 0.677458, 8.47884e-05
-0.0145863, 1.10951, -0.250221, -1.42616, 0.000174011, 0.677458, 8.47884e-05
-0.0171946, 1.10951, -0.251128, -1.42549, 0.000174011, 0.677458, 8.46685e-05
-0.0198028, 1.10951, -0.252042, -1.42481, 0.00017449, 0.677458, 8.49082e-05
-0.0224245, 1.1095, -0.252955, -1.42409, 0.000174586, 0.677458, 8.46685e-05
-0.0250368, 1.1095, -0.253866, -1.42336, 0.000174299, 0.677458, 8.47884e-05
-0.0276418, 1.1095, -0.254746, -1.42261, 0.000174682, 0.677457, 8.47884e-05
-0.030246, 1.1095, -0.255618, -1.42183, 0.000175928, 0.677457, 8.46685e-05
-0.0328552, 1.10951, -0.256503, -1.42105, 0.000175832, 0.677457, 8.47284e-05
-0.0354652, 1.10951, -0.257382, -1.42025, 0.000175545, 0.677458, 8.47284e-05
-0.0380667, 1.10951, -0.25827, -1.41943, 0.000175737, 0.677458, 8.47284e-05
-0.0406687, 1.10951, -0.259117, -1.41862, 0.000175066, 0.677457, 8.46685e-05
-0.0432609, 1.10951, -0.259962, -1.41777, 0.000175737, 0.677458, 8.46685e-05
-0.0458497, 1.10951, -0.260798, -1.4169, 0.000175832, 0.677457, 8.47284e-05
-0.0484332, 1.1095, -0.261623, -1.416, 0.00017497, 0.677457, 8.46685e-05
-0.0510239, 1.1095, -0.262473, -1.41508, 0.00017449, 0.677459, 8.49082e-05
-0.0536083, 1.10951, -0.263289, -1.41417, 0.000174874, 0.677456, 8.47884e-05
-0.0561843, 1.1095, -0.264106, -1.41324, 0.000175161, 0.677458, 8.49082e-05
-0.058759, 1.10951, -0.264919, -1.4123, 0.000175066, 0.677457, 8.46087e-05
-0.0613394, 1.10951, -0.265726, -1.41134, 0.000175353, 0.677458, 8.46685e-05
-0.0639118, 1.10951, -0.266531, -1.41038, 0.000175257, 0.677458, 8.49082e-05
-0.066477, 1.10951, -0.267304, -1.40941, 0.000175161, 0.677457, 8.45487e-05
-0.0690461, 1.1095, -0.268079, -1.40841, 0.000175545, 0.677457, 8.49082e-05
-0.0716207, 1.10951, -0.268857, -1.40741, 0.000175257, 0.677457, 8.46685e-05
-0.0741875, 1.1095, -0.269628, -1.40639, 0.000175545, 0.677458, 8.47884e-05
-0.0767489, 1.1095, -0.270388, -1.40536, 0.00017612, 0.677457, 8.47884e-05
-0.0793117, 1.1095, -0.271138, -1.4043, 0.000176504, 0.677456, 8.46685e-05
-0.0818768, 1.1095, -0.271892, -1.40323, 0.000176312, 0.677458, 8.47284e-05
-0.0844362, 1.1095, -0.272637, -1.40214, 0.000175832, 0.677458, 8.46685e-05
-0.0869891, 1.1095, -0.273377, -1.40105, 0.000175545, 0.677458, 8.47284e-05
-0.0895462, 1.1095, -0.274102, -1.39995, 0.000175161, 0.677458, 8.46685e-05
-0.0920941, 1.1095, -0.274808, -1.39885, 0.000175161, 0.677458, 8.47884e-05
-0.0946411, 1.1095, -0.275518, -1.39773, 0.000174682, 0.677458, 8.47884e-05
-0.097179, 1.1095, -0.276226, -1.39659, 0.000175353, 0.677457, 8.46087e-05
-0.0997137, 1.1095, -0.276917, -1.39541, 0.000176216, 0.677458, 8.47284e-05
-0.102246, 1.1095, -0.277609, -1.39426, 0.000177271, 0.677456, 8.45487e-05
-0.104768, 1.1095, -0.278279, -1.3931, 0.00017775, 0.677458, 8.47284e-05
-0.107289, 1.1095, -0.278938, -1.39193, 0.000177558, 0.677456, 8.46685e-05
-0.109821, 1.1095, -0.279623, -1.39074, 0.000177079, 0.677458, 8.47284e-05
-0.112338, 1.1095, -0.280284, -1.38955, 0.000176887, 0.677457, 8.47884e-05
-0.114847, 1.1095, -0.280904, -1.38834, 0.000175641, 0.677458, 8.47884e-05
-0.117351, 1.1095, -0.281539, -1.38712, 0.00017612, 0.677458, 8.47284e-05
-0.119859, 1.1095, -0.282171, -1.38588, 0.000175737, 0.677458, 8.45487e-05
-0.122355, 1.1095, -0.282784, -1.38465, 0.000176983, 0.677457, 8.47284e-05
-0.124847, 1.1095, -0.283387, -1.38338, 0.000178229, 0.677457, 8.47884e-05
-0.127339, 1.1095, -0.283994, -1.3821, 0.00017938, 0.677457, 8.47884e-05
-0.129835, 1.1095, -0.284597, -1.38083, 0.000179763, 0.677457, 8.47284e-05
-0.132324, 1.1095, -0.285184, -1.37955, 0.000179668, 0.677459, 8.46087e-05
-0.134807, 1.1095, -0.285771, -1.37827, 0.000178517, 0.677458, 8.47884e-05
-0.137279, 1.1095, -0.28634, -1.37696, 0.000178805, 0.677457, 8.46087e-05
-0.139755, 1.1095, -0.286891, -1.37562, 0.000178134, 0.67746, 8.46685e-05
-0.142224, 1.1095, -0.287442, -1.37431, 0.000178709, 0.677456, 8.47884e-05
-0.144685, 1.1095, -0.287987, -1.37299, 0.000179859, 0.677459, 8.46685e-05
-0.147148, 1.1095, -0.288522, -1.37167, 0.000181201, 0.677456, 8.47284e-05
-0.149614, 1.1095, -0.28905, -1.37033, 0.000181777, 0.677458, 8.45487e-05
-0.152066, 1.1095, -0.289567, -1.36898, 0.000181777, 0.677458, 8.46685e-05
-0.154514, 1.1095, -0.290081, -1.36763, 0.000180914, 0.677458, 8.46087e-05
-0.156954, 1.1095, -0.290587, -1.36626, 0.00018053, 0.677458, 8.45487e-05
-0.159399, 1.1095, -0.291078, -1.36489, 0.00017938, 0.677457, 8.49082e-05
-0.161833, 1.1095, -0.291552, -1.36349, 0.000180051, 0.677459, 8.45487e-05
-0.164261, 1.1095, -0.292019, -1.36209, 0.000180722, 0.677457, 8.47284e-05
-0.16669, 1.1095, -0.292492, -1.36068, 0.000182256, 0.677458, 8.47284e-05
-0.16912, 1.1095, -0.292967, -1.35928, 0.000182927, 0.677458, 8.46685e-05
-0.171534, 1.1095, -0.293412, -1.35786, 0.000182256, 0.677457, 8.47284e-05
-0.173937, 1.1095, -0.293835, -1.3564, 0.000181585, 0.677458, 8.45487e-05
-0.176334, 1.1095, -0.294265, -1.35494, 0.000181106, 0.677458, 8.49082e-05
-0.178737, 1.1095, -0.294697, -1.35351, 0.000180339, 0.677459, 8.46685e-05
-0.181129, 1.10949, -0.295119, -1.35207, 0.000181777, 0.677457, 8.46685e-05
-0.183512, 1.10949, -0.295503, -1.35062, 0.000182064, 0.677458, 8.47284e-05
-0.185891, 1.10949, -0.295878, -1.34915, 0.000183119, 0.677458, 8.45487e-05
-0.188281, 1.10949, -0.296278, -1.34767, 0.000183311, 0.677457, 8.47284e-05
-0.190655, 1.10949, -0.296679, -1.34619, 0.000183886, 0.677458, 8.45487e-05
-0.193018, 1.10949, -0.297052, -1.34469, 0.000183311, 0.677458, 8.47884e-05
-0.195366, 1.10949, -0.297395, -1.34317, 0.000183023, 0.677458, 8.47884e-05
-0.197714, 1.10949, -0.297728, -1.34166, 0.000182352, 0.677459, 8.46685e-05
-0.200064, 1.10949, -0.298075, -1.34016, 0.000182448, 0.677459, 8.47884e-05
-0.20241, 1.10949, -0.298425, -1.33864, 0.000182735, 0.677458, 8.45487e-05
-0.204744, 1.10949, -0.298747, -1.33708, 0.000183215, 0.677456, 8.47284e-05
-0.20707, 1.10948, -0.299053, -1.33552, 0.000184078, 0.677461, 8.45487e-05
-0.209389, 1.10949, -0.299359, -1.33399, 0.000184269, 0.677458, 8.46087e-05
-0.211709, 1.10948, -0.299664, -1.33246, 0.000183503, 0.677458, 8.47284e-05
-0.214024, 1.10948, -0.299955, -1.33093, 0.000183023, 0.677459, 8.46685e-05
-0.216331, 1.10948, -0.300211, -1.32938, 0.000182448, 0.67746, 8.49082e-05
-0.218631, 1.10948, -0.300464, -1.32782, 0.000182927, 0.677458, 8.45487e-05
-0.22092, 1.10948, -0.300725, -1.32625, 0.000183023, 0.67746, 8.47884e-05
-0.223198, 1.10948, -0.300992, -1.32466, 0.000183886, 0.677458, 8.47884e-05
-0.225475, 1.10947, -0.301246, -1.32305, 0.000184174, 0.677459, 8.45487e-05
-0.227751, 1.10947, -0.301482, -1.32146, 0.000183886, 0.677459, 8.47884e-05
-0.230013, 1.10947, -0.301697, -1.31989, 0.000184269, 0.677459, 8.45487e-05
-0.232275, 1.10947, -0.301902, -1.3183, 0.000183886, 0.677458, 8.47884e-05
-0.234528, 1.10946, -0.302103, -1.31664, 0.000184461, 0.67746, 8.47884e-05
-0.236779, 1.10946, -0.302287, -1.31501, 0.000184269, 0.677458, 8.45487e-05
-0.23902, 1.10946, -0.302465, -1.31339, 0.000184174, 0.67746, 8.49082e-05
-0.24125, 1.10945, -0.302642, -1.31178, 0.000184174, 0.677459, 8.45487e-05
-0.243472, 1.10945, -0.302812, -1.31014, 0.000184174, 0.677459, 8.49082e-05
-0.245694, 1.10944, -0.302978, -1.30849, 0.000184653, 0.67746, 8.45487e-05
-0.247907, 1.10944, -0.303132, -1.30685, 0.000184269, 0.67746, 8.47284e-05
-0.25011, 1.10943, -0.303267, -1.30518, 0.000183886, 0.677459, 8.47884e-05
-0.252309, 1.10942, -0.303398, -1.30351, 0.000184174, 0.677459, 8.45487e-05
-0.254499, 1.10942, -0.303516, -1.30184, 0.000184365, 0.677459, 8.49082e-05
-0.256686, 1.10941, -0.303622, -1.30019, 0.000184653, 0.677459, 8.46685e-05
-0.258862, 1.1094, -0.303722, -1.29851, 0.000184078, 0.677459, 8.46685e-05
-0.261027, 1.10939, -0.303809, -1.29679, 0.000183982, 0.677461, 8.46087e-05
-0.263183, 1.10938, -0.303886, -1.2951, 0.000184461, 0.677459, 8.45487e-05
-0.265346, 1.10938, -0.303957, -1.29342, 0.000184653, 0.677462, 8.49082e-05
-0.2675, 1.10937, -0.304019, -1.29175, 0.000184845, 0.677461, 8.46685e-05
-0.269645, 1.10936, -0.304062, -1.29006, 0.000184269, 0.67746, 8.47884e-05
-0.271778, 1.10936, -0.3041, -1.28836, 0.000183886, 0.677461, 8.49082e-05
-0.2739, 1.10935, -0.304127, -1.28665, 0.000183982, 0.677461, 8.45487e-05
-0.276019, 1.10934, -0.304143, -1.28492, 0.000183694, 0.67746, 8.46685e-05
-0.27813, 1.10933, -0.304153, -1.2832, 0.000186283, 0.67746, 8.46685e-05
-0.280237, 1.10932, -0.304155, -1.28149, 0.000187146, 0.677462, 8.45487e-05
-0.282332, 1.10931, -0.30416, -1.27979, 0.00018705, 0.677461, 8.47284e-05
-0.284429, 1.1093, -0.304161, -1.27803, 0.000186091, 0.677459, 8.46685e-05
-0.286512, 1.10928, -0.304164, -1.27627, 0.000185899, 0.677466, 8.47884e-05
-0.288574, 1.10928, -0.304158, -1.27453, 0.000186187, 0.677463, 8.47284e-05
-0.29063, 1.10926, -0.304162, -1.27281, 0.000186091, 0.677464, 8.46685e-05
-0.292677, 1.10925, -0.304159, -1.27108, 0.000188776, 0.677463, 8.46685e-05
-0.294715, 1.10923, -0.304156, -1.26932, 0.000189159, 0.677464, 8.47884e-05
-0.296739, 1.10922, -0.304159, -1.26757, 0.00018983, 0.677464, 8.44289e-05
-0.298753, 1.1092, -0.304158, -1.2658, 0.000189063, 0.677464, 8.47884e-05
-0.300755, 1.10918, -0.304158, -1.26402, 0.000188776, 0.677465, 8.46685e-05
-0.302753, 1.10916, -0.304156, -1.26225, 0.000188776, 0.677465, 8.46685e-05
-0.304752, 1.10914, -0.304158, -1.26051, 0.000188871, 0.677465, 8.46087e-05
-0.306732, 1.10912, -0.304156, -1.25873, 0.000189638, 0.677464, 8.45487e-05
-0.308698, 1.10909, -0.304154, -1.25693, 0.000189351, 0.677467, 8.47284e-05
-0.310652, 1.10908, -0.304155, -1.25515, 0.000188776, 0.677466, 8.46087e-05
-0.312599, 1.10906, -0.30415, -1.25339, 0.000189543, 0.677466, 8.46685e-05
-0.314537, 1.10903, -0.304149, -1.25163, 0.000190118, 0.677466, 8.47284e-05
-0.316468, 1.109, -0.304149, -1.24986, 0.000190885, 0.677466, 8.44289e-05
-0.318384, 1.10898, -0.304147, -1.24807, 0.000190405, 0.677466, 8.47284e-05
-0.320287, 1.10895, -0.304146, -1.24627, 0.000190693, 0.677466, 8.46685e-05
-0.322184, 1.10892, -0.304146, -1.24446, 0.000190405, 0.677467, 8.46685e-05
-0.324081, 1.1089, -0.304147, -1.24268, 0.000190214, 0.677468, 8.46087e-05
-0.325962, 1.10888, -0.304144, -1.24092, 0.000190597, 0.677467, 8.46087e-05
-0.327824, 1.10885, -0.304139, -1.23912, 0.000190118, 0.677466, 8.47284e-05
-0.329672, 1.10879, -0.30414, -1.23727, 0.000189734, 0.677471, 8.46685e-05
-0.331506, 1.10868, -0.304134, -1.23546, 0.000190405, 0.677469, 8.46685e-05
-0.333331, 1.10851, -0.304127, -1.23372, 0.000191748, 0.677474, 8.46087e-05
-0.335153, 1.10831, -0.304114, -1.23205, 0.000192515, 0.677473, 8.45487e-05
-0.336961, 1.1081, -0.304096, -1.23036, 0.000191939, 0.677476, 8.47284e-05
-0.33874, 1.10784, -0.304077, -1.2287, 0.000192227, 0.677476, 8.45487e-05
-0.340501, 1.10756, -0.30406, -1.22706, 0.000192419, 0.677476, 8.47284e-05
-0.342257, 1.10722, -0.304052, -1.22543, 0.000193569, 0.677477, 8.45487e-05
-0.344016, 1.10685, -0.304044, -1.2238, 0.00019472, 0.677476, 8.46087e-05
-0.345748, 1.10646, -0.304027, -1.22219, 0.000196254, 0.67748, 8.46685e-05
-0.347454, 1.10607, -0.304008, -1.22059, 0.000196541, 0.677478, 8.45487e-05
-0.349148, 1.10565, -0.303994, -1.21895, 0.000195966, 0.67748, 8.46087e-05
-0.350831, 1.1052, -0.303976, -1.21733, 0.000196254, 0.67748, 8.46685e-05
-0.352504, 1.10473, -0.303951, -1.21576, 0.00019635, 0.677482, 8.46685e-05
-0.354161, 1.10423, -0.303932, -1.21422, 0.000196541, 0.677482, 8.46087e-05
-0.35581, 1.10372, -0.303914, -1.21267, 0.000197117, 0.677483, 8.44289e-05
-0.357446, 1.10316, -0.303896, -1.21113, 0.000196925, 0.677483, 8.47284e-05
-0.359071, 1.1026, -0.303878, -1.2096, 0.000198267, 0.677484, 8.45487e-05
-0.360656, 1.10206, -0.30385, -1.20815, 0.000198555, 0.677486, 8.46087e-05
-0.362229, 1.1015, -0.303832, -1.20668, 0.000198363, 0.677485, 8.47884e-05
-0.363819, 1.10087, -0.303834, -1.20518, 0.000198459, 0.677487, 8.46685e-05
-0.365392, 1.10021, -0.303819, -1.20375, 0.000198938, 0.677493, 8.47284e-05
-0.366952, 1.09956, -0.303792, -1.20236, 0.000199801, 0.677494, 8.45487e-05
-0.368513, 1.09892, -0.303767, -1.20091, 0.000199897, 0.677494, 8.47284e-05
-0.370061, 1.09828, -0.30374, -1.19944, 0.000200856, 0.677496, 8.46685e-05
-0.371576, 1.09765, -0.303708, -1.19802, 0.000201335, 0.677503, 8.44888e-05
-0.37307, 1.09701, -0.303683, -1.19661, 0.000201047, 0.677503, 8.47284e-05
-0.374571, 1.09633, -0.303662, -1.1952, 0.000201431, 0.677503, 8.45487e-05
-0.376068, 1.09565, -0.303635, -1.19382, 0.000201814, 0.677508, 8.47884e-05
-0.377539, 1.09498, -0.303604, -1.19244, 0.000202006, 0.677507, 8.45487e-05
-0.378986, 1.09431, -0.303572, -1.19107, 0.000201814, 0.67751, 8.47884e-05
-0.380406, 1.09364, -0.303519, -1.18971, 0.000202581, 0.67751, 8.46087e-05
-0.38182, 1.09298, -0.303398, -1.18838, 0.000202869, 0.677512, 8.45487e-05
-0.383252, 1.0923, -0.303234, -1.18705, 0.000202773, 0.677513, 8.46087e-05
-0.384677, 1.09159, -0.303035, -1.18573, 0.000202869, 0.677518, 8.44289e-05
-0.38609, 1.09087, -0.302792, -1.18444, 0.000202965, 0.67752, 8.46087e-05
-0.387514, 1.09015, -0.302488, -1.18317, 0.000203252, 0.677524, 8.47884e-05
-0.388927, 1.08943, -0.302138, -1.18191, 0.000203732, 0.677527, 8.45487e-05
-0.39034, 1.0887, -0.301755, -1.18065, 0.000203348, 0.677529, 8.47284e-05
-0.391744, 1.08797, -0.301361, -1.17939, 0.00020354, 0.677535, 8.45487e-05
-0.393133, 1.08723, -0.300946, -1.17817, 0.00020354, 0.677541, 8.47284e-05
-0.394518, 1.08648, -0.300493, -1.17696, 0.000203924, 0.677547, 8.44888e-05
-0.395894, 1.08575, -0.299997, -1.17576, 0.000204115, 0.677554, 8.46685e-05
-0.397252, 1.08501, -0.299479, -1.17458, 0.000204307, 0.677563, 8.47884e-05
-0.398611, 1.08426, -0.298963, -1.17342, 0.000204307, 0.677571, 8.44289e-05
-0.399948, 1.08352, -0.298421, -1.17225, 0.000204595, 0.677576, 8.47284e-05
-0.401266, 1.08277, -0.297832, -1.1711, 0.000205362, 0.677582, 8.45487e-05
-0.402585, 1.08203, -0.297215, -1.16997, 0.000205458, 0.677594, 8.45487e-05
-0.40388, 1.08129, -0.296616, -1.16885, 0.000205553, 0.677599, 8.47284e-05
-0.405165, 1.08054, -0.296003, -1.1677, 0.000206512, 0.677604, 8.45487e-05
-0.406441, 1.07979, -0.29534, -1.1666, 0.000206225, 0.677616, 8.46087e-05
-0.407709, 1.07905, -0.294664, -1.16551, 0.000206129, 0.677621, 8.44888e-05
-0.408978, 1.07831, -0.293993, -1.16445, 0.000206512, 0.677629, 8.46087e-05
-0.410224, 1.07758, -0.293305, -1.16341, 0.000206704, 0.677643, 8.47884e-05
-0.411472, 1.07684, -0.2926, -1.16235, 0.000206704, 0.677646, 8.45487e-05
-0.412704, 1.07609, -0.29188, -1.1613, 0.0002068, 0.677658, 8.47284e-05
-0.413938, 1.07534, -0.291142, -1.16026, 0.000206704, 0.677667, 8.46087e-05
-0.415161, 1.07457, -0.290404, -1.15924, 0.000206992, 0.677676, 8.45487e-05
-0.41637, 1.0738, -0.289671, -1.15822, 0.000207854, 0.677679, 8.47284e-05
-0.417583, 1.07303, -0.288926, -1.15723, 0.000208046, 0.677692, 8.46685e-05
-0.418779, 1.07227, -0.288165, -1.15624, 0.000208142, 0.677693, 8.46087e-05
-0.419977, 1.0715, -0.287402, -1.15526, 0.000208238, 0.677708, 8.46087e-05
-0.421162, 1.07074, -0.286636, -1.15432, 0.000208238, 0.677713, 8.45487e-05
-0.422347, 1.06997, -0.28586, -1.15335, 0.00020843, 0.677724, 8.46685e-05
-0.423498, 1.0692, -0.285065, -1.15241, 0.000208717, 0.677736, 8.45487e-05
-0.424647, 1.06843, -0.284261, -1.15147, 0.000209197, 0.677748, 8.46685e-05
-0.425789, 1.06766, -0.283456, -1.15055, 0.000209388, 0.677763, 8.47284e-05
-0.426934, 1.06688, -0.282667, -1.14964, 0.000209388, 0.677775, 8.45487e-05
-0.42805, 1.06611, -0.281847, -1.14873, 0.000209484, 0.677792, 8.47284e-05
-0.42916, 1.06533, -0.281018, -1.14784, 0.000209676, 0.677809, 8.45487e-05
-0.43026, 1.06454, -0.28019, -1.14695, 0.000209676, 0.677832, 8.46087e-05
-0.431354, 1.06375, -0.279355, -1.14608, 0.000209964, 0.677856, 8.46087e-05
-0.432444, 1.06297, -0.278535, -1.14523, 0.000210251, 0.677875, 8.44289e-05
-0.433519, 1.06219, -0.277682, -1.1444, 0.000210443, 0.677903, 8.47284e-05
-0.434578, 1.0614, -0.276819, -1.14358, 0.000210635, 0.677915, 8.44289e-05
-0.435631, 1.06061, -0.275967, -1.14274, 0.000211018, 0.677932, 8.46087e-05
-0.436682, 1.05981, -0.27511, -1.14193, 0.000210539, 0.677958, 8.46685e-05
-0.437731, 1.059, -0.274268, -1.14112, 0.00021121, 0.677968, 8.45487e-05
-0.438756, 1.05821, -0.273394, -1.14034, 0.000211306, 0.677993, 8.47284e-05
-0.439787, 1.05741, -0.272522, -1.13958, 0.000211498, 0.678009, 8.45487e-05
-0.440804, 1.0566, -0.271653, -1.13881, 0.000211881, 0.67802, 8.46087e-05
-0.441826, 1.05578, -0.270779, -1.13807, 0.000211689, 0.678048, 8.46087e-05
-0.442808, 1.05495, -0.269902, -1.13732, 0.00021236, 0.678063, 8.45487e-05
-0.443807, 1.05412, -0.269027, -1.1366, 0.000211977, 0.678081, 8.47284e-05
-0.444784, 1.0533, -0.268152, -1.1359, 0.000212265, 0.678099, 8.45487e-05
-0.445777, 1.05246, -0.267276, -1.13521, 0.000212265, 0.67811, 8.46087e-05
-0.446728, 1.05163, -0.266389, -1.13452, 0.000212744, 0.678126, 8.46087e-05
-0.447674, 1.05078, -0.265486, -1.13383, 0.000213127, 0.678147, 8.45487e-05
-0.448613, 1.04993, -0.264589, -1.13317, 0.000213223, 0.678174, 8.47284e-05
-0.449541, 1.04908, -0.263685, -1.13251, 0.000213607, 0.678192, 8.46685e-05
-0.45047, 1.04822, -0.262793, -1.13186, 0.000213319, 0.678219, 8.46685e-05
-0.451357, 1.04736, -0.261882, -1.13122, 0.000213894, 0.678256, 8.46087e-05
-0.452265, 1.0465, -0.260978, -1.1306, 0.000213703, 0.67829, 8.4369e-05
-0.453145, 1.04562, -0.260065, -1.12998, 0.000214949, 0.67832, 8.46087e-05
-0.454026, 1.04475, -0.259149, -1.12937, 0.000214949, 0.678378, 8.46087e-05
-0.454892, 1.04386, -0.258237, -1.12878, 0.000215716, 0.67847, 8.45487e-05
-0.455726, 1.04298, -0.257307, -1.12819, 0.000215524, 0.678563, 8.47284e-05
-0.456574, 1.04208, -0.256385, -1.12763, 0.000215333, 0.678673, 8.45487e-05
-0.457397, 1.04119, -0.255453, -1.12706, 0.000216004, 0.67878, 8.47284e-05
-0.45821, 1.04029, -0.254529, -1.12654, 0.000216195, 0.678922, 8.46685e-05
-0.459029, 1.03939, -0.253608, -1.12601, 0.000216483, 0.679053, 8.45487e-05
-0.459818, 1.03849, -0.252675, -1.12549, 0.000216675, 0.679205, 8.47284e-05
-0.460607, 1.03758, -0.251721, -1.125, 0.000216387, 0.679376, 8.44888e-05
-0.461387, 1.03668, -0.250774, -1.12452, 0.00021725, 0.67953, 8.44888e-05
-0.462131, 1.03575, -0.24983, -1.12405, 0.000216962, 0.679701, 8.47284e-05
-0.462886, 1.03481, -0.248903, -1.12357, 0.000217825, 0.679864, 8.45487e-05
-0.463635, 1.03386, -0.247967, -1.12312, 0.000218113, 0.680067, 8.47284e-05
-0.464348, 1.03291, -0.24701, -1.12269, 0.000218113, 0.680274, 8.45487e-05
-0.465076, 1.03196, -0.246059, -1.12226, 0.000218209, 0.680468, 8.46685e-05
-0.465781, 1.031, -0.245104, -1.12183, 0.000218113, 0.680663, 8.47284e-05
-0.466442, 1.03004, -0.244141, -1.12142, 0.000218688, 0.680886, 8.44289e-05
-0.467123, 1.02906, -0.243192, -1.12104, 0.000218592, 0.681122, 8.46087e-05
-0.467798, 1.02808, -0.242225, -1.12067, 0.000218784, 0.681339, 8.46087e-05
-0.46843, 1.02709, -0.241252, -1.12031, 0.000218976, 0.681537, 8.45487e-05
-0.469061, 1.0261, -0.240276, -1.11996, 0.000218401, 0.681741, 8.49082e-05
-0.469696, 1.0251, -0.239322, -1.11963, 0.000219455, 0.681973, 8.44888e-05
-0.470291, 1.02409, -0.238338, -1.11931, 0.000219359, 0.682233, 8.44888e-05
-0.470865, 1.02309, -0.237359, -1.11901, 0.00022003, 0.68248, 8.47884e-05
-0.471466, 1.02207, -0.23638, -1.11873, 0.00022003, 0.682721, 8.44289e-05
-0.472043, 1.02106, -0.235407, -1.11846, 0.000220893, 0.682959, 8.46087e-05
-0.472579, 1.02002, -0.234425, -1.11821, 0.000220893, 0.683226, 8.46087e-05
-0.473108, 1.019, -0.23344, -1.11796, 0.000221181, 0.683471, 8.45487e-05
-0.473656, 1.01796, -0.23246, -1.11776, 0.000221948, 0.683723, 8.47284e-05
-0.474182, 1.01693, -0.231456, -1.11756, 0.000221756, 0.68398, 8.45487e-05
-0.47466, 1.01587, -0.230465, -1.11737, 0.000222427, 0.684257, 8.46685e-05
-0.475139, 1.0148, -0.229489, -1.11719, 0.000221852, 0.684541, 8.47884e-05
-0.475639, 1.01373, -0.22853, -1.11703, 0.000222907, 0.684813, 8.45487e-05
-0.47613, 1.01265, -0.227537, -1.1169, 0.000222619, 0.685082, 8.44888e-05
-0.476569, 1.01159, -0.22652, -1.11677, 0.000222715, 0.685355, 8.47284e-05
-0.476977, 1.0105, -0.225513, -1.11666, 0.000223098, 0.685645, 8.45487e-05
-0.4774, 1.0094, -0.224532, -1.11657, 0.000223194, 0.685926, 8.46087e-05
-0.477835, 1.0083, -0.223568, -1.1165, 0.00022329, 0.686217, 8.46087e-05
-0.478245, 1.00719, -0.222556, -1.11646, 0.000223194, 0.686528, 8.45487e-05
-0.478612, 1.00606, -0.221541, -1.11641, 0.000223578, 0.686835, 8.46685e-05
-0.478961, 1.00494, -0.220528, -1.11638, 0.000223482, 0.68713, 8.47284e-05
-0.479313, 1.0038, -0.219552, -1.11638, 0.000223769, 0.687416, 8.46685e-05
-0.479659, 1.00267, -0.218555, -1.11638, 0.000223961, 0.68771, 8.45487e-05
-0.479995, 1.00153, -0.217544, -1.11638, 0.000223769, 0.688023, 8.47284e-05
-0.480309, 1.00038, -0.216516, -1.11639, 0.000224345, 0.688362, 8.45487e-05
-0.48061, 0.999247, -0.21551, -1.11639, 0.000224632, 0.688686, 8.45487e-05
-0.480894, 0.998114, -0.214512, -1.11641, 0.000224632, 0.689018, 8.46087e-05
-0.481156, 0.996983, -0.213508, -1.11641, 0.000225016, 0.689338, 8.44289e-05
-0.4814, 0.99584, -0.212491, -1.11642, 0.00022492, 0.689682, 8.47284e-05
-0.481642, 0.994681, -0.211476, -1.11642, 0.000224632, 0.69004, 8.46087e-05
-0.481891, 0.993509, -0.210486, -1.11642, 0.000225112, 0.69041, 8.45487e-05
-0.482136, 0.992343, -0.209494, -1.11643, 0.00022492, 0.690778, 8.47284e-05
-0.482356, 0.991181, -0.208481, -1.11643, 0.000225591, 0.691137, 8.45487e-05
-0.482554, 0.990015, -0.207451, -1.11644, 0.000225208, 0.691486, 8.46087e-05
-0.48273, 0.988836, -0.206431, -1.11645, 0.000225495, 0.69185, 8.46087e-05
-0.482899, 0.987647, -0.205424, -1.11646, 0.000225783, 0.692242, 8.44289e-05
-0.483062, 0.986451, -0.204431, -1.11646, 0.000226166, 0.692642, 8.47284e-05
-0.48321, 0.985256, -0.203433, -1.11647, 0.000226646, 0.693036, 8.45487e-05
-0.483338, 0.984065, -0.202433, -1.11648, 0.000227125, 0.693413, 8.44888e-05
-0.483449, 0.982869, -0.201433, -1.1165, 0.000226837, 0.693796, 8.47284e-05
-0.483549, 0.981666, -0.200429, -1.11651, 0.000227029, 0.694201, 8.45487e-05
-0.483639, 0.980448, -0.199421, -1.11653, 0.000227413, 0.694631, 8.46685e-05
-0.483718, 0.979244, -0.198397, -1.11654, 0.000227413, 0.695046, 8.47284e-05
-0.483789, 0.978033, -0.197384, -1.11656, 0.000227796, 0.695455, 8.44289e-05
-0.483847, 0.976826, -0.196372, -1.11657, 0.000227317, 0.695855, 8.46087e-05
-0.483892, 0.975601, -0.19538, -1.11659, 0.000228084, 0.696295, 8.46087e-05
-0.483925, 0.974374, -0.194374, -1.1166, 0.000228467, 0.69676, 8.44289e-05
-0.48394, 0.973145, -0.193362, -1.11662, 0.000229043, 0.697216, 8.46087e-05
-0.48394, 0.971914, -0.192336, -1.11664, 0.000229043, 0.697648, 8.46087e-05
-0.483937, 0.970689, -0.191331, -1.11666, 0.00022933, 0.698074, 8.44289e-05
-0.483937, 0.969451, -0.190336, -1.11669, 0.000228851, 0.698548, 8.46087e-05
-0.483931, 0.968217, -0.189334, -1.11671, 0.000229426, 0.699037, 8.47284e-05
-0.483926, 0.966962, -0.188314, -1.11674, 0.000230097, 0.699522, 8.45487e-05
-0.483921, 0.965709, -0.187284, -1.11676, 0.000230001, 0.699987, 8.46685e-05
-0.483914, 0.964453, -0.186254, -1.11679, 0.000230193, 0.700468, 8.47884e-05
-0.483909, 0.963191, -0.185211, -1.11682, 0.000230385, 0.700979, 8.45487e-05
-0.483902, 0.961936, -0.184173, -1.11684, 0.00023096, 0.701472, 8.46685e-05
-0.483895, 0.960667, -0.183116, -1.11688, 0.000231631, 0.701974, 8.47284e-05
-0.483887, 0.959417, -0.182061, -1.11695, 0.00023211, 0.702475, 8.44289e-05
-0.483878, 0.958147, -0.180994, -1.11707, 0.00023259, 0.702989, 8.46087e-05
-0.483864, 0.956852, -0.179926, -1.1172, 0.000232782, 0.703481, 8.47284e-05
-0.483842, 0.955538, -0.178843, -1.11737, 0.00023422, 0.703968, 8.46087e-05
-0.483823, 0.954202, -0.177752, -1.11761, 0.000233932, 0.704486, 8.47284e-05
-0.483802, 0.952877, -0.176649, -1.11788, 0.000233932, 0.704994, 8.46087e-05
-0.483783, 0.95153, -0.175547, -1.1182, 0.000234412, 0.705504, 8.44289e-05
-0.48376, 0.950182, -0.174434, -1.11854, 0.000234412, 0.705999, 8.46087e-05
-0.483735, 0.948823, -0.17331, -1.11891, 0.000235178, 0.706512, 8.46685e-05
-0.48371, 0.947456, -0.172169, -1.11932, 0.000235178, 0.707036, 8.45487e-05
-0.483688, 0.946087, -0.171043, -1.11976, 0.000235178, 0.707548, 8.47284e-05
-0.483667, 0.944709, -0.169924, -1.12023, 0.000235083, 0.708052, 8.45487e-05
-0.483639, 0.943323, -0.168802, -1.12074, 0.000235849, 0.708578, 8.46087e-05
-0.483604, 0.941929, -0.167657, -1.12127, 0.000236329, 0.709099, 8.46087e-05
-0.483555, 0.940522, -0.166499, -1.12182, 0.000236712, 0.709628, 8.45487e-05
-0.483463, 0.939123, -0.165336, -1.12242, 0.000236808, 0.710163, 8.47284e-05
-0.48333, 0.937707, -0.164202, -1.12306, 0.000236904, 0.71071, 8.45487e-05
-0.483181, 0.936275, -0.163103, -1.1237, 0.000237288, 0.711225, 8.44888e-05
-0.483024, 0.934823, -0.162013, -1.12436, 0.000236808, 0.711747, 8.47284e-05
-0.482832, 0.933376, -0.160913, -1.12508, 0.000237288, 0.712292, 8.44289e-05
-0.482607, 0.931908, -0.159798, -1.12579, 0.000237096, 0.712854, 8.46087e-05
-0.482362, 0.930447, -0.158695, -1.12651, 0.000237383, 0.713389, 8.47284e-05
-0.482106, 0.928981, -0.157596, -1.12729, 0.000237671, 0.713923, 8.45487e-05
-0.481824, 0.927501, -0.156505, -1.12808, 0.000237575, 0.714456, 8.47284e-05
-0.481513, 0.926006, -0.155413, -1.12889, 0.000237959, 0.715016, 8.45487e-05
-0.481172, 0.924516, -0.154329, -1.12973, 0.000237767, 0.715559, 8.44888e-05
-0.480821, 0.923007, -0.153255, -1.13058, 0.000237671, 0.716123, 8.46087e-05
-0.480478, 0.921514, -0.152198, -1.13145, 0.000238055, 0.716675, 8.45487e-05
-0.480124, 0.920018, -0.151142, -1.13235, 0.000238246, 0.717223, 8.46685e-05
-0.479735, 0.918512, -0.150063, -1.13326, 0.00023863, 0.717774, 8.47284e-05
-0.479305, 0.916985, -0.14897, -1.13419, 0.000239205, 0.718338, 8.45487e-05
-0.478851, 0.915443, -0.147889, -1.13512, 0.00023863, 0.718906, 8.46087e-05
-0.4784, 0.913895, -0.146833, -1.1361, 0.000238726, 0.719469, 8.46087e-05
-0.477962, 0.912343, -0.145782, -1.13708, 0.000238917, 0.720029, 8.44289e-05
-0.477498, 0.910784, -0.14472, -1.13807, 0.000239205, 0.720605, 8.47284e-05
-0.476989, 0.909225, -0.143645, -1.13909, 0.000239397, 0.721169, 8.46087e-05
-0.476457, 0.907658, -0.14259, -1.14012, 0.000240643, 0.721735, 8.45487e-05
-0.475941, 0.906084, -0.141546, -1.14119, 0.000240547, 0.722308, 8.46087e-05
-0.475431, 0.904506, -0.140499, -1.14226, 0.000240547, 0.722881, 8.46087e-05
-0.474877, 0.902909, -0.139424, -1.14335, 0.000240547, 0.723461, 8.45487e-05
-0.474281, 0.90131, -0.138355, -1.14444, 0.000240547, 0.724033, 8.47284e-05
-0.473695, 0.899714, -0.137318, -1.14555, 0.000240835, 0.724608, 8.45487e-05
-0.473133, 0.89812, -0.1363, -1.14667, 0.000240547, 0.725184, 8.46087e-05
-0.472529, 0.896507, -0.135248, -1.14782, 0.000240835, 0.725776, 8.47284e-05
-0.471867, 0.894878, -0.134163, -1.149, 0.000240931, 0.726391, 8.44289e-05
-0.471213, 0.893244, -0.133095, -1.15016, 0.000240931, 0.726977, 8.46087e-05
-0.47058, 0.8916, -0.132067, -1.15134, 0.00024141, 0.727555, 8.46087e-05
-0.469916, 0.889969, -0.131038, -1.15251, 0.00024141, 0.728125, 8.45487e-05
-0.46923, 0.888317, -0.129999, -1.15371, 0.000241027, 0.728738, 8.47284e-05
-0.468544, 0.886664, -0.128952, -1.15491, 0.000240835, 0.729339, 8.45487e-05
-0.467821, 0.884989, -0.127904, -1.15612, 0.000241027, 0.729957, 8.46087e-05
-0.467087, 0.883304, -0.126858, -1.15732, 0.000241314, 0.730545, 8.47284e-05
-0.466366, 0.881623, -0.125822, -1.15857, 0.00024189, 0.731133, 8.45487e-05
-0.465602, 0.879965, -0.124765, -1.15985, 0.00024141, 0.731735, 8.47284e-05
-0.464821, 0.878296, -0.123711, -1.16114, 0.00024141, 0.732373, 8.46087e-05
-0.464058, 0.876614, -0.122669, -1.16241, 0.000243328, 0.732982, 8.46087e-05
-0.463254, 0.874912, -0.121619, -1.16371, 0.000244382, 0.733587, 8.47284e-05
-0.462435, 0.873209, -0.120555, -1.16502, 0.000244095, 0.734186, 8.44888e-05
-0.461612, 0.871492, -0.119499, -1.16631, 0.000243807, 0.734793, 8.45487e-05
-0.460764, 0.869777, -0.118441, -1.16763, 0.00024352, 0.735415, 8.49082e-05
-0.459931, 0.868063, -0.117404, -1.16899, 0.000244382, 0.736058, 8.46685e-05
-0.459075, 0.866339, -0.116352, -1.17034, 0.000244574, 0.736689, 8.44888e-05
-0.458195, 0.864617, -0.115287, -1.17168, 0.000244382, 0.737285, 8.47284e-05
-0.457323, 0.862884, -0.114224, -1.17303, 0.00024467, 0.737891, 8.44888e-05
-0.456426, 0.86116, -0.113167, -1.1744, 0.000244382, 0.738518, 8.45487e-05
-0.455548, 0.859427, -0.112136, -1.1758, 0.000244478, 0.739164, 8.47284e-05
-0.454652, 0.857682, -0.111095, -1.17718, 0.000244191, 0.739793, 8.44289e-05
-0.453735, 0.855932, -0.110044, -1.17857, 0.000244286, 0.74041, 8.44888e-05
-0.452831, 0.854189, -0.108989, -1.18001, 0.000245245, 0.741023, 8.46087e-05
-0.4519, 0.852441, -0.10794, -1.18146, 0.000246396, 0.741652, 8.45487e-05
-0.450982, 0.850686, -0.106888, -1.18289, 0.000245725, 0.742293, 8.47284e-05
-0.45003, 0.848922, -0.10584, -1.18434, 0.00024582, 0.74292, 8.46685e-05
-0.449074, 0.847147, -0.104781, -1.18577, 0.000245533, 0.743534, 8.45487e-05
-0.448117, 0.845374, -0.103741, -1.18722, 0.0002463, 0.744166, 8.47284e-05
-0.447151, 0.843601, -0.102689, -1.18871, 0.000246779, 0.744815, 8.46685e-05
-0.446183, 0.841837, -0.101642, -1.1902, 0.000247163, 0.745464, 8.45487e-05
-0.445179, 0.840068, -0.100574, -1.19169, 0.000246779, 0.746114, 8.47284e-05
-0.444191, 0.838292, -0.0995214, -1.19317, 0.000246108, 0.746727, 8.45487e-05
-0.443162, 0.83651, -0.098455, -1.19466, 0.000247738, 0.747352, 8.46685e-05
-0.442145, 0.834727, -0.0973963, -1.19617, 0.000246875, 0.748009, 8.47284e-05
-0.441104, 0.832929, -0.0963389, -1.19768, 0.000247354, 0.748667, 8.45487e-05
-0.440083, 0.831135, -0.0952784, -1.1992, 0.000247163, 0.749323, 8.45487e-05
-0.439021, 0.829339, -0.0942011, -1.20074, 0.000248984, 0.749971, 8.49082e-05
-0.43796, 0.827543, -0.0931282, -1.20228, 0.000248409, 0.750602, 8.44289e-05
-0.436889, 0.825753, -0.0920803, -1.20382, 0.000249368, 0.75124, 8.45487e-05
-0.43583, 0.823953, -0.0910331, -1.20534, 0.000250135, 0.7519, 8.47284e-05
-0.434754, 0.822157, -0.0899726, -1.2069, 0.000251477, 0.752562, 8.45487e-05
-0.433661, 0.820375, -0.0888953, -1.20851, 0.000250998, 0.753228, 8.46087e-05
-0.432557, 0.818582, -0.0878233, -1.21012, 0.000249751, 0.753879, 8.47284e-05
-0.431451, 0.816779, -0.0867527, -1.21168, 0.000251285, 0.754504, 8.45487e-05
-0.430324, 0.81497, -0.0856795, -1.21326, 0.000252244, 0.755146, 8.46685e-05
-0.429186, 0.813164, -0.0845969, -1.21486, 0.000251189, 0.755821, 8.47284e-05
-0.428036, 0.811348, -0.0835181, -1.21646, 0.000251381, 0.756492, 8.44888e-05
-0.426886, 0.809521, -0.0824362, -1.21807, 0.000251381, 0.757141, 8.47284e-05
-0.425707, 0.807695, -0.081351, -1.21969, 0.000252436, 0.757781, 8.46685e-05
-0.424536, 0.805868, -0.080266, -1.22133, 0.000251956, 0.758428, 8.46685e-05
-0.423336, 0.804048, -0.0791667, -1.22297, 0.000252436, 0.759089, 8.47284e-05
-0.422136, 0.802234, -0.0780722, -1.2246, 0.000253394, 0.75976, 8.44888e-05
-0.420919, 0.800422, -0.0769814, -1.22624, 0.000253107, 0.760405, 8.44888e-05
-0.419702, 0.798615, -0.0758867, -1.22792, 0.000252052, 0.761054, 8.47284e-05
-0.418456, 0.796811, -0.0747623, -1.2296, 0.000253874, 0.761709, 8.45487e-05
-0.417207, 0.794997, -0.0736434, -1.23128, 0.000253682, 0.762367, 8.46087e-05
-0.415972, 0.793176, -0.0725566, -1.23293, 0.000253874, 0.763021, 8.46087e-05
-0.414727, 0.791352, -0.0714791, -1.23458, 0.000253586, 0.76367, 8.44289e-05
-0.413474, 0.789529, -0.0703798, -1.23624, 0.000254257, 0.764314, 8.47884e-05
-0.412191, 0.787705, -0.069252, -1.23792, 0.000255024, 0.764978, 8.46087e-05
-0.410915, 0.785889, -0.0681283, -1.23962, 0.000255024, 0.765647, 8.45487e-05
-0.409634, 0.784063, -0.0670217, -1.24131, 0.000254928, 0.766305, 8.47284e-05
-0.408344, 0.782253, -0.0659138, -1.24301, 0.000256271, 0.766944, 8.46087e-05
-0.407043, 0.780429, -0.064788, -1.2447, 0.000256654, 0.767593, 8.45487e-05
-0.40572, 0.778608, -0.063655, -1.2464, 0.000255791, 0.76825, 8.49082e-05
-0.404401, 0.776794, -0.0625319, -1.24814, 0.000255312, 0.768939, 8.47884e-05
-0.403063, 0.774984, -0.0613925, -1.2499, 0.000256271, 0.769627, 8.45487e-05
-0.401712, 0.773167, -0.0602572, -1.2516, 0.000257421, 0.770264, 8.47284e-05
-0.400363, 0.771344, -0.0591098, -1.25331, 0.000257229, 0.7709, 8.46087e-05
-0.398992, 0.769524, -0.0579683, -1.25503, 0.000257325, 0.771563, 8.45487e-05
-0.397613, 0.7677, -0.0568209, -1.25676, 0.000255983, 0.772244, 8.47284e-05
-0.396231, 0.76588, -0.0556671, -1.2585, 0.000256942, 0.772919, 8.46087e-05
-0.39484, 0.76407, -0.0545023, -1.26026, 0.000257517, 0.773569, 8.44289e-05
-0.393455, 0.762276, -0.0533553, -1.26203, 0.000257421, 0.774204, 8.47284e-05
-0.392062, 0.760479, -0.0522139, -1.26381, 0.000257517, 0.77486, 8.47284e-05
-0.390648, 0.758673, -0.051066, -1.26554, 0.000258284, 0.77553, 8.44289e-05
-0.389226, 0.756875, -0.0498992, -1.26731, 0.000257517, 0.776214, 8.49082e-05
-0.387797, 0.755089, -0.0487283, -1.26912, 0.000257325, 0.776883, 8.46087e-05
-0.386363, 0.75329, -0.0475577, -1.2709, 0.000257517, 0.777534, 8.45487e-05
-0.384926, 0.751482, -0.0463925, -1.27264, 0.0002579, 0.778168, 8.46087e-05
-0.383459, 0.749677, -0.0452144, -1.27439, 0.000258284, 0.778826, 8.46685e-05
-0.381982, 0.747874, -0.0440317, -1.27615, 0.000258284, 0.779512, 8.45487e-05
-0.380509, 0.746079, -0.0428462, -1.27793, 0.000258092, 0.780178, 8.47284e-05
-0.379013, 0.744283, -0.0416367, -1.27972, 0.0002579, 0.780821, 8.47284e-05
-0.377499, 0.742499, -0.0404309, -1.28153, 0.000257517, 0.781472, 8.45487e-05
-0.375984, 0.74071, -0.0392225, -1.28331, 0.000256846, 0.78212, 8.46087e-05
-0.374463, 0.738912, -0.0380279, -1.28507, 0.00025953, 0.782781, 8.46087e-05
-0.372931, 0.737137, -0.0368185, -1.28688, 0.000259818, 0.783453, 8.45487e-05
-0.371388, 0.735371, -0.0355846, -1.28872, 0.000258859, 0.784122, 8.46685e-05
-0.369838, 0.733602, -0.0343546, -1.29052, 0.000258092, 0.784763, 8.47284e-05
-0.368292, 0.731819, -0.0331559, -1.29229, 0.000259147, 0.785412, 8.46685e-05
-0.366739, 0.730044, -0.0319587, -1.29408, 0.000259339, 0.786051, 8.45487e-05
-0.365178, 0.728273, -0.0307359, -1.29587, 0.000258763, 0.786709, 8.47284e-05
-0.363593, 0.726509, -0.0294848, -1.29768, 0.000259339, 0.787373, 8.46685e-05
-0.362008, 0.724757, -0.0282414, -1.29949, 0.000259243, 0.788013, 8.45487e-05
-0.360429, 0.723017, -0.0270172, -1.30133, 0.000258572, 0.78867, 8.46087e-05
-0.358824, 0.721283, -0.0257719, -1.30316, 0.000258859, 0.789321, 8.46087e-05
-0.357203, 0.719533, -0.0245116, -1.30494, 0.000260106, 0.789952, 8.45487e-05
-0.355578, 0.717802, -0.0232499, -1.30677, 0.000259434, 0.790596, 8.46087e-05
-0.353954, 0.716076, -0.0219924, -1.30863, 0.000258572, 0.791267, 8.49082e-05
-0.352321, 0.714344, -0.0207295, -1.31045, 0.000259914, 0.791903, 8.44289e-05
-0.350662, 0.7126, -0.019448, -1.31223, 0.000261544, 0.792526, 8.46087e-05
-0.349, 0.710872, -0.0181759, -1.31402, 0.000261064, 0.79314, 8.47284e-05
-0.347336, 0.709142, -0.0169079, -1.31583, 0.000260202, 0.793774, 8.45487e-05
-0.345666, 0.707433, -0.015622, -1.31765, 0.000260489, 0.79441, 8.46685e-05
-0.34398, 0.705717, -0.0143241, -1.31946, 0.000262982, 0.795068, 8.47284e-05
-0.342299, 0.704019, -0.0130478, -1.32128, 0.000262598, 0.795695, 8.45487e-05
-0.340622, 0.702321, -0.0117897, -1.32308, 0.000262598, 0.796298, 8.45487e-05
-0.338924, 0.700623, -0.0105015, -1.32488, 0.000261736, 0.796913, 8.47284e-05
-0.337212, 0.698953, -0.00919118, -1.32671, 0.000262407, 0.797557, 8.45487e-05
-0.335505, 0.697289, -0.0078885, -1.32856, 0.000262215, 0.798209, 8.45487e-05
-0.333798, 0.695622, -0.00659881, -1.33036, 0.000261927, 0.798829, 8.46685e-05
-0.332079, 0.693946, -0.00530811, -1.33214, 0.000262023, 0.799422, 8.46685e-05
-0.330336, 0.692278, -0.00398637, -1.33393, 0.000262407, 0.800008, 8.45487e-05
-0.328585, 0.69062, -0.00265702, -1.33574, 0.000262119, 0.800631, 8.47284e-05
-0.326829, 0.688967, -0.00133522, -1.33756, 0.000262215, 0.801267, 8.47284e-05
-0.325067, 0.687322, -7.84962e-06, -1.33938, 0.000263269, 0.801879, 8.45487e-05
-0.323289, 0.685682, 0.00132204, -1.3412, 0.000263078, 0.802474, 8.46087e-05
-0.321505, 0.684065, 0.00265558, -1.34299, 0.000262598, 0.803046, 8.47284e-05
-0.319707, 0.682441, 0.00400902, -1.34479, 0.000263941, 0.803653, 8.45487e-05
-0.317908, 0.680846, 0.00536264, -1.34661, 0.000263749, 0.804267, 8.46087e-05
-0.316122, 0.679244, 0.00668204, -1.34844, 0.000262598, 0.804902, 8.47284e-05
-0.314336, 0.677652, 0.00799827, -1.35022, 0.000261927, 0.805475, 8.45487e-05
-0.31253, 0.676049, 0.0093468, -1.35198, 0.00026442, 0.806029, 8.44888e-05
-0.310703, 0.674465, 0.0107242, -1.35374, 0.000263557, 0.806599, 8.47284e-05
-0.308882, 0.672881, 0.0120866, -1.35552, 0.000263557, 0.807211, 8.46685e-05
-0.307059, 0.671318, 0.0134365, -1.3573, 0.000263749, 0.80781, 8.45487e-05
-0.305226, 0.669752, 0.0147912, -1.35907, 0.000264995, 0.808405, 8.46087e-05
-0.303368, 0.668203, 0.0161792, -1.36084, 0.000264995, 0.808969, 8.47284e-05
-0.301507, 0.666648, 0.0175682, -1.36259, 0.000264899, 0.809513, 8.44289e-05
-0.299637, 0.665112, 0.0189549, -1.36435, 0.000264612, 0.810086, 8.46685e-05
-0.297763, 0.663601, 0.0203372, -1.36615, 0.00026442, 0.810697, 8.49082e-05
-0.295889, 0.662092, 0.0217161, -1.36793, 0.000264612, 0.811292, 8.47884e-05
-0.294003, 0.660581, 0.0231159, -1.36966, 0.000264612, 0.81182, 8.44289e-05
-0.292104, 0.65907, 0.0245327, -1.3714, 0.00026442, 0.812348, 8.47284e-05
-0.290209, 0.657579, 0.0259246, -1.37314, 0.000264036, 0.812903, 8.49082e-05
-0.288323, 0.65609, 0.0272934, -1.37487, 0.00026442, 0.813483, 8.46087e-05
-0.286427, 0.654615, 0.0286844, -1.3766, 0.000264036, 0.814045, 8.45487e-05
-0.284503, 0.653147, 0.030112, -1.37834, 0.00026442, 0.814599, 8.46685e-05
-0.282582, 0.651695, 0.0315407, -1.38008, 0.000263749, 0.815144, 8.49082e-05
-0.280659, 0.650249, 0.0329506, -1.38177, 0.00026442, 0.815662, 8.46685e-05
-0.278732, 0.648805, 0.0343569, -1.38346, 0.000263557, 0.816199, 8.45487e-05
-0.276792, 0.647398, 0.0357871, -1.38517, 0.000263557, 0.816751, 8.46087e-05
-0.274845, 0.645991, 0.0372328, -1.38689, 0.000264036, 0.817312, 8.47284e-05
-0.272895, 0.644615, 0.0386803, -1.38859, 0.000264612, 0.817827, 8.45487e-05
-0.270939, 0.643222, 0.0401154, -1.39026, 0.000264803, 0.818356, 8.45487e-05
-0.268979, 0.64185, 0.0415497, -1.39192, 0.000263941, 0.818866, 8.46685e-05
-0.267004, 0.640471, 0.043001, -1.39359, 0.000264803, 0.819391, 8.47284e-05
-0.265021, 0.63912, 0.0444728, -1.39525, 0.000265187, 0.819913, 8.46087e-05
-0.263049, 0.637771, 0.045912, -1.39691, 0.000264899, 0.820437, 8.47884e-05
-0.26108, 0.636436, 0.0473355, -1.39857, 0.000264612, 0.820942, 8.49082e-05
-0.259086, 0.635106, 0.0487863, -1.4002, 0.000264612, 0.821431, 8.45487e-05
-0.257084, 0.633778, 0.0502615, -1.40179, 0.000265187, 0.821933, 8.44888e-05
-0.255088, 0.632481, 0.0517348, -1.40341, 0.000264995, 0.822439, 8.46685e-05
-0.253095, 0.631196, 0.0531929, -1.40505, 0.00026442, 0.822959, 8.47884e-05
-0.251092, 0.629937, 0.054655, -1.40666, 0.00026442, 0.823434, 8.47284e-05
-0.24907, 0.628663, 0.0561379, -1.40825, 0.000264612, 0.823912, 8.47884e-05
-0.24704, 0.627418, 0.0576368, -1.40982, 0.000264516, 0.824386, 8.47284e-05
-0.245005, 0.626177, 0.0591371, -1.4114, 0.000264612, 0.824887, 8.45487e-05
-0.242979, 0.624962, 0.0606145, -1.41297, 0.000264803, 0.82536, 8.47884e-05
-0.240938, 0.623753, 0.0621017, -1.41454, 0.000265187, 0.825821, 8.47284e-05
-0.238877, 0.622552, 0.0636201, -1.41611, 0.000264324, 0.826285, 8.46685e-05
-0.236828, 0.621366, 0.0651153, -1.41767, 0.000264036, 0.826752, 8.45487e-05
-0.234796, 0.620195, 0.0665799, -1.41922, 0.000264899, 0.827211, 8.47284e-05
-0.232751, 0.619041, 0.0680587, -1.42074, 0.000264995, 0.827657, 8.47284e-05
-0.230684, 0.617897, 0.0695751, -1.42223, 0.000264803, 0.828107, 8.45487e-05
-0.228611, 0.616776, 0.0711, -1.42374, 0.000264132, 0.828564, 8.46685e-05
-0.226541, 0.61566, 0.0726035, -1.42525, 0.000264995, 0.828997, 8.47284e-05
-0.224473, 0.614561, 0.0741024, -1.42673, 0.000264803, 0.829414, 8.45487e-05
-0.222386, 0.613465, 0.0756279, -1.42818, 0.000264899, 0.829833, 8.45487e-05
-0.220278, 0.612392, 0.0771825, -1.42961, 0.000263749, 0.830269, 8.49082e-05
-0.218174, 0.611332, 0.0787249, -1.43105, 0.000264899, 0.830702, 8.47284e-05
-0.216085, 0.610296, 0.080231, -1.43249, 0.000265666, 0.831096, 8.46087e-05
-0.213986, 0.609257, 0.0817516, -1.4339, 0.000265762, 0.831482, 8.46685e-05
-0.211864, 0.608249, 0.0833088, -1.43532, 0.000264803, 0.831878, 8.47284e-05
-0.209751, 0.607235, 0.084845, -1.43673, 0.000264324, 0.832298, 8.45487e-05
-0.207657, 0.606267, 0.0863404, -1.43813, 0.000264612, 0.832692, 8.45487e-05
-0.205547, 0.605299, 0.0878482, -1.4395, 0.000264612, 0.83306, 8.47284e-05
-0.20342, 0.604357, 0.0894004, -1.44083, 0.000264803, 0.833409, 8.49082e-05
-0.201281, 0.603421, 0.0909727, -1.44218, 0.000265187, 0.83381, 8.45487e-05
-0.199155, 0.602511, 0.0925189, -1.44353, 0.000264036, 0.834222, 8.46087e-05
-0.197034, 0.601613, 0.0940373, -1.44487, 0.000264324, 0.834617, 8.47284e-05
-0.194895, 0.600729, 0.0955891, -1.44617, 0.00026442, 0.834949, 8.47884e-05
-0.192733, 0.599866, 0.0971744, -1.44745, 0.000263941, 0.835279, 8.45487e-05
-0.190576, 0.599021, 0.0987491, -1.44872, 0.000263078, 0.835645, 8.47284e-05
-0.188434, 0.598187, 0.100279, -1.44997, 0.000264132, 0.83603, 8.47884e-05
-0.18628, 0.597366, 0.10182, -1.45121, 0.000265283, 0.836392, 8.46685e-05
-0.184111, 0.596558, 0.103396, -1.45243, 0.000264516, 0.83671, 8.47284e-05
-0.181943, 0.595768, 0.104958, -1.45367, 0.000264132, 0.837026, 8.49082e-05
-0.179793, 0.595007, 0.106489, -1.45488, 0.000264612, 0.837369, 8.46685e-05
-0.177637, 0.594258, 0.108011, -1.45608, 0.000265283, 0.837726, 8.46685e-05
-0.175464, 0.593536, 0.109584, -1.45727, 0.000264803, 0.838071, 8.49082e-05
-0.173274, 0.592825, 0.111177, -1.45844, 0.000263749, 0.838381, 8.47884e-05
-0.171098, 0.592121, 0.112735, -1.45958, 0.00026442, 0.838661, 8.45487e-05
-0.168924, 0.591436, 0.114276, -1.46069, 0.000264324, 0.838955, 8.47284e-05
-0.166723, 0.590783, 0.115853, -1.46181, 0.000264899, 0.839274, 8.49082e-05
-0.164512, 0.590139, 0.11746, -1.4629, 0.000263941, 0.839598, 8.46685e-05
-0.162309, 0.58952, 0.11904, -1.46399, 0.000264899, 0.839891, 8.44289e-05
-0.16012, 0.588926, 0.120595, -1.46506, 0.000264612, 0.840166, 8.47284e-05
-0.157922, 0.588343, 0.122156, -1.46609, 0.000264612, 0.840432, 8.47284e-05
-0.155717, 0.587766, 0.123734, -1.4671, 0.000264036, 0.840707, 8.45487e-05
-0.153519, 0.587232, 0.125296, -1.46812, 0.000263269, 0.840978, 8.46087e-05
-0.151329, 0.586721, 0.126836, -1.4691, 0.000263653, 0.841248, 8.47284e-05
-0.149126, 0.586215, 0.128391, -1.47007, 0.000263941, 0.841512, 8.45487e-05
-0.146899, 0.585722, 0.129983, -1.471, 0.000264899, 0.841765, 8.45487e-05
-0.144678, 0.585256, 0.131576, -1.47194, 0.000263653, 0.842018, 8.47284e-05
-0.142459, 0.584826, 0.133143, -1.47285, 0.000264132, 0.842258, 8.46087e-05
-0.140232, 0.584401, 0.134715, -1.47374, 0.000264132, 0.842495, 8.45487e-05
-0.137991, 0.583993, 0.136306, -1.47462, 0.000264228, 0.84272, 8.47884e-05
-0.135751, 0.583605, 0.137908, -1.47549, 0.000263461, 0.84295, 8.49082e-05
-0.133517, 0.583253, 0.13948, -1.47634, 0.000263941, 0.843185, 8.46685e-05
-0.131285, 0.582928, 0.14104, -1.47716, 0.000264803, 0.843422, 8.46685e-05
-0.129045, 0.582614, 0.142617, -1.47794, 0.000264324, 0.843643, 8.47284e-05
-0.126802, 0.582319, 0.144191, -1.4787, 0.000264132, 0.843859, 8.46685e-05
-0.124578, 0.582031, 0.145739, -1.47944, 0.000263557, 0.844055, 8.46685e-05
-0.122344, 0.581778, 0.147289, -1.48018, 0.000263749, 0.844264, 8.49082e-05
-0.120097, 0.581558, 0.148876, -1.48091, 0.000263653, 0.844463, 8.49082e-05
-0.117845, 0.581358, 0.150466, -1.48158, 0.000264036, 0.844645, 8.45487e-05
-0.115605, 0.581185, 0.152031, -1.48225, 0.000263749, 0.844816, 8.46685e-05
-0.113353, 0.581025, 0.153601, -1.4829, 0.000263941, 0.845003, 8.49082e-05
-0.111088, 0.580884, 0.15519, -1.48351, 0.000263557, 0.845195, 8.46685e-05
-0.108814, 0.58077, 0.156793, -1.4841, 0.000263269, 0.845383, 8.47884e-05
-0.106549, 0.580691, 0.15837, -1.48468, 0.000263269, 0.845551, 8.47284e-05
-0.104293, 0.580633, 0.159924, -1.48523, 0.000264036, 0.845715, 8.44888e-05
-0.10202, 0.580593, 0.161503, -1.48574, 0.000263269, 0.845884, 8.47884e-05
-0.0997501, 0.580574, 0.163077, -1.48625, 0.000263269, 0.846048, 8.46685e-05
-0.0975015, 0.580575, 0.164615, -1.48675, 0.000263557, 0.846198, 8.46685e-05
-0.0952536, 0.580583, 0.166145, -1.48721, 0.000263557, 0.846325, 8.47284e-05
-0.0929833, 0.580593, 0.167709, -1.48764, 0.000264132, 0.846456, 8.45487e-05
-0.0907049, 0.580609, 0.169291, -1.48806, 0.000263269, 0.846603, 8.49082e-05
-0.088431, 0.58063, 0.17085, -1.48848, 0.000263557, 0.846737, 8.47284e-05
-0.0861666, 0.580651, 0.172386, -1.4889, 0.000263461, 0.846853, 8.46685e-05
-0.0838871, 0.580672, 0.173937, -1.4893, 0.000264612, 0.846971, 8.47284e-05
-0.0815914, 0.580696, 0.175518, -1.48968, 0.000263941, 0.847098, 8.45487e-05
-0.0793015, 0.580722, 0.177083, -1.49005, 0.000263269, 0.847226, 8.47884e-05
-0.077034, 0.580749, 0.178608, -1.49041, 0.000263557, 0.847344, 8.47884e-05
-0.0747565, 0.58078, 0.180134, -1.49075, 0.000263941, 0.847444, 8.46685e-05
-0.0724646, 0.580817, 0.181691, -1.49107, 0.000263078, 0.847543, 8.47284e-05
-0.0701826, 0.580905, 0.183221, -1.49139, 0.000263365, 0.847637, 8.46087e-05
-0.0679161, 0.581038, 0.184714, -1.49167, 0.000263749, 0.847729, 8.46685e-05
-0.0656486, 0.581204, 0.186209, -1.49189, 0.000263653, 0.847799, 8.49082e-05
-0.0633521, 0.581381, 0.187755, -1.4921, 0.000263653, 0.84787, 8.46685e-05
-0.0610547, 0.581577, 0.189312, -1.49227, 0.000262982, 0.847945, 8.47884e-05
-0.0587792, 0.5818, 0.190821, -1.49242, 0.000263557, 0.848014, 8.46685e-05
-0.0565054, 0.582061, 0.192327, -1.49254, 0.000263078, 0.848077, 8.46685e-05
-0.0542033, 0.582352, 0.19386, -1.49264, 0.000263941, 0.84813, 8.47284e-05
-0.0518945, 0.582665, 0.19541, -1.49272, 0.000263078, 0.848178, 8.46087e-05
-0.0495977, 0.582992, 0.196932, -1.49279, 0.000262598, 0.848225, 8.47884e-05
-0.0473147, 0.583323, 0.198423, -1.49282, 0.000262502, 0.848269, 8.49082e-05
-0.0450246, 0.583668, 0.199924, -1.49282, 0.000263749, 0.848304, 8.46087e-05
-0.0427223, 0.58403, 0.201453, -1.49281, 0.000262982, 0.848337, 8.47284e-05
-0.0404377, 0.584424, 0.202946, -1.4928, 0.000262119, 0.848362, 8.46685e-05
-0.0381745, 0.584854, 0.204396, -1.49278, 0.00026279, 0.84838, 8.46685e-05
-0.0358977, 0.58532, 0.205861, -1.49276, 0.000262598, 0.848392, 8.47284e-05
-0.033595, 0.585794, 0.207371, -1.49274, 0.000262407, 0.848404, 8.46685e-05
-0.0312966, 0.586271, 0.208881, -1.49272, 0.000262502, 0.848414, 8.47884e-05
-0.0290111, 0.586761, 0.210346, -1.4927, 0.00026279, 0.848423, 8.47884e-05
-0.0267302, 0.587302, 0.211801, -1.49268, 0.000262407, 0.848428, 8.46685e-05
-0.0244248, 0.587881, 0.213285, -1.49266, 0.000262982, 0.848438, 8.49082e-05
